;FLAVOR:Marlin
;TIME:3249
;Filament used: 2.89624m
;Layer height: 0.15
;MINX:62.192
;MINY:82.15
;MINZ:0.3
;MAXX:147.8
;MAXY:127.812
;MAXZ:30
;TARGET_MACHINE.NAME:Unknown
;Generated with Cura_SteamEngine 5.12.0
M104 S200
M105
M109 S200
G28 ;Home
G1 Z15.0 F6000 ;Move the platform down 15mm
;Prime the extruder
G92 E0
G1 F200 E3
G92 E0
M82 ;absolute extrusion mode
G92 E0
G92 E0
G1 F1500 E-6.5
;LAYER_COUNT:199
;LAYER:0
M107
G0 F3600 X65.749 Y110.32 Z0.3
;TYPE:SKIRT
G1 F1500 E0
G1 F1800 X67.722 Y109.336 E0.11
G1 X69.246 Y109.114 E0.18683
G1 X127.058 Y109.062 E3.07108
G1 X127.05 Y95.659 E3.73976
G1 X126.735 Y95.188 E3.76803
G1 X125.858 Y92.484 E3.90985
G1 X125.98 Y90.125 E4.0277
G1 X126.249 Y88.646 E4.1027
G1 X127.343 Y86.266 E4.23338
G1 X129.212 Y84.318 E4.36807
G1 X131.088 Y83.197 E4.4771
G1 X133.198 Y82.456 E4.58867
G1 X135.471 Y82.15 E4.70309
G1 X137.622 Y82.313 E4.81071
G1 X139.808 Y82.93 E4.92403
G1 X141.901 Y84.139 E5.04462
G1 X143.04 Y85.036 E5.11695
G1 X146.038 Y88.018 E5.32792
G1 X147.224 Y89.928 E5.44008
G1 X147.8 Y92.27 E5.56041
G1 X147.785 Y119.06 E6.89696
G1 X147.325 Y120.983 E6.99561
G1 X146.724 Y122.625 E7.08285
G1 X145.404 Y124.499 E7.1972
G1 X143.683 Y126.076 E7.31366
G1 X141.452 Y127.242 E7.43925
G1 X139.025 Y127.812 E7.56363
G1 X70.911 Y127.807 E10.96185
G1 X68.554 Y127.242 E11.08277
G1 X66.35 Y126.083 E11.20701
G1 X64.544 Y124.459 E11.32818
G1 X63.209 Y122.479 E11.44732
G1 X62.412 Y120.216 E11.56702
G1 X62.224 Y118.61 E11.64769
G1 X62.192 Y116.196 E11.76813
G1 X62.648 Y114.124 E11.87398
G1 X63.689 Y112.295 E11.97897
G1 X64.377 Y111.422 E12.03443
G1 X65.749 Y110.32 E12.12222
G0 F3600 X65.964 Y110.66
G1 F1800 X67.843 Y109.723 E12.22698
G1 X69.304 Y109.51 E12.30064
G1 X127.458 Y109.462 E15.20195
G1 X127.45 Y95.537 E15.89667
G1 X127.097 Y95.009 E15.92836
G1 X126.262 Y92.434 E16.06341
G1 X126.374 Y90.196 E16.17521
G1 X126.634 Y88.764 E16.24782
G1 X127.677 Y86.496 E16.37236
G1 X129.465 Y84.632 E16.50122
G1 X131.258 Y83.561 E16.60542
G1 X133.293 Y82.846 E16.71303
G1 X135.48 Y82.552 E16.82312
G1 X137.552 Y82.709 E16.92679
G1 X139.652 Y83.302 E17.03566
G1 X141.654 Y84.454 E17.15089
G1 X142.758 Y85.32 E17.22089
G1 X145.723 Y88.269 E17.42953
G1 X146.852 Y90.087 E17.53629
G1 X147.4 Y92.316 E17.65081
G1 X147.385 Y119.013 E18.98273
G1 X146.949 Y120.846 E19.07673
G1 X146.366 Y122.439 E19.16136
G1 X145.102 Y124.233 E19.27085
G1 X143.45 Y125.747 E19.38264
G1 X141.312 Y126.865 E19.50301
G1 X138.981 Y127.412 E19.62246
G1 X70.958 Y127.407 E23.01615
G1 X68.696 Y126.865 E23.13219
G1 X66.578 Y125.751 E23.25158
G1 X64.851 Y124.198 E23.36746
G1 X63.568 Y122.295 E23.48196
G1 X62.804 Y120.125 E23.59674
G1 X62.624 Y118.605 E23.6731
G1 X62.593 Y116.238 E23.7912
G1 X63.026 Y114.269 E23.89178
G1 X64.037 Y112.493 E23.99374
G1 X64.663 Y111.705 E24.04395
G1 X65.964 Y110.66 E24.1272
G0 F3600 X66.183 Y110.997
G1 F1800 X67.963 Y110.11 E24.22642
G1 X69.362 Y109.906 E24.29695
G1 X127.858 Y109.862 E27.21533
G1 X127.85 Y95.415 E27.93609
G1 X127.459 Y94.831 E27.97116
G1 X126.665 Y92.383 E28.09955
G1 X126.768 Y90.268 E28.2052
G1 X127.02 Y88.882 E28.27548
G1 X128.011 Y86.726 E28.39386
G1 X129.718 Y84.946 E28.5169
G1 X131.429 Y83.924 E28.61633
G1 X133.386 Y83.237 E28.71981
G1 X135.489 Y82.954 E28.82567
G1 X137.482 Y83.105 E28.92539
G1 X139.494 Y83.673 E29.02969
G1 X141.454 Y84.801 E29.14251
G1 X142.476 Y85.604 E29.20736
G1 X145.408 Y88.52 E29.41366
G1 X146.48 Y90.246 E29.51503
G1 X147 Y92.362 E29.62374
G1 X146.985 Y118.967 E30.95107
G1 X146.573 Y120.709 E31.04037
G1 X146.008 Y122.253 E31.1224
G1 X144.8 Y123.967 E31.22701
G1 X143.22 Y125.416 E31.33397
G1 X141.168 Y126.488 E31.44947
G1 X138.937 Y127.012 E31.56381
G1 X71.005 Y127.007 E34.95295
G1 X68.838 Y126.488 E35.06412
G1 X66.806 Y125.419 E35.17867
G1 X65.158 Y123.937 E35.28924
G1 X63.927 Y122.111 E35.39911
G1 X63.196 Y120.035 E35.50891
G1 X63.024 Y118.6 E35.58102
G1 X62.994 Y116.28 E35.69677
G1 X63.404 Y114.413 E35.79214
G1 X64.35 Y112.742 E35.88794
G1 X64.947 Y111.99 E35.93584
G1 X66.183 Y110.997 E36.01494
G0 F3600 X66.4 Y111.336
G1 F1800 X68.083 Y110.497 E36.10876
G1 X69.42 Y110.302 E36.17617
G1 X128.258 Y110.262 E39.11161
G1 X128.25 Y95.295 E39.85832
G1 X127.824 Y94.658 E39.89655
G1 X127.069 Y92.329 E40.0187
G1 X127.162 Y90.339 E40.11809
G1 X127.405 Y89 E40.18598
G1 X128.345 Y86.956 E40.29822
G1 X129.971 Y85.26 E40.41544
G1 X131.6 Y84.287 E40.5101
G1 X133.479 Y83.628 E40.60945
G1 X135.498 Y83.356 E40.71109
G1 X137.412 Y83.501 E40.80685
G1 X139.338 Y84.045 E40.9067
G1 X141.207 Y85.116 E41.01417
G1 X142.229 Y85.919 E41.07901
G1 X145.091 Y88.768 E41.28048
G1 X146.107 Y90.404 E41.37656
G1 X146.6 Y92.409 E41.47957
G1 X146.585 Y118.921 E42.80226
G1 X146.197 Y120.571 E42.88682
G1 X145.649 Y122.068 E42.96636
G1 X144.498 Y123.701 E43.06603
G1 X142.987 Y125.087 E43.16832
G1 X141.028 Y126.111 E43.27861
G1 X138.893 Y126.612 E43.38801
G1 X71.052 Y126.607 E46.77262
G1 X68.98 Y126.111 E46.87891
G1 X67.037 Y125.089 E46.98844
G1 X65.464 Y123.674 E47.09399
G1 X64.286 Y121.927 E47.19912
G1 X63.588 Y119.944 E47.304
G1 X63.424 Y118.595 E47.3718
G1 X63.395 Y116.322 E47.48521
G1 X63.782 Y114.556 E47.5754
G1 X64.698 Y112.939 E47.66812
G1 X65.232 Y112.274 E47.71067
G1 X66.4 Y111.336 E47.78541
G0 F3600 X66.619 Y111.673
G1 F1800 X68.203 Y110.884 E47.87369
G1 X69.478 Y110.698 E47.93798
G1 X128.769 Y110.662 E50.89602
G1 X128.658 Y110.148 E50.92225
G1 X128.65 Y95.173 E51.66936
G1 X128.186 Y94.479 E51.71101
G1 X127.472 Y92.278 E51.82645
G1 X127.556 Y90.41 E51.91974
G1 X127.79 Y89.118 E51.98524
G1 X128.679 Y87.186 E52.09135
G1 X130.222 Y85.576 E52.2026
G1 X131.774 Y84.65 E52.29277
G1 X133.574 Y84.018 E52.38794
G1 X135.507 Y83.758 E52.48525
G1 X137.342 Y83.897 E52.57706
G1 X139.182 Y84.417 E52.67245
G1 X141.008 Y85.463 E52.77744
G1 X141.947 Y86.202 E52.83706
G1 X144.774 Y89.016 E53.03606
G1 X145.735 Y90.563 E53.12692
G1 X146.2 Y92.455 E53.22412
G1 X146.185 Y118.877 E54.54232
G1 X145.821 Y120.433 E54.62204
G1 X145.29 Y121.883 E54.69908
G1 X144.196 Y123.435 E54.79382
G1 X142.756 Y124.756 E54.89131
G1 X140.884 Y125.734 E54.99668
G1 X138.849 Y126.212 E55.10097
G1 X71.099 Y126.207 E58.48103
G1 X69.122 Y125.734 E58.58245
G1 X67.265 Y124.757 E58.68713
G1 X65.769 Y123.412 E58.7875
G1 X64.646 Y121.745 E58.88778
G1 X63.98 Y119.853 E58.98785
G1 X63.824 Y118.59 E59.05134
G1 X63.796 Y116.363 E59.16245
G1 X64.16 Y114.698 E59.24748
G1 X65.01 Y113.19 E59.33384
G1 X65.517 Y112.559 E59.37423
G1 X66.619 Y111.673 E59.44477
G0 F3600 X66.836 Y112.012
G1 F1800 X68.323 Y111.271 E59.52766
G1 X69.536 Y111.094 E59.58882
G1 X129.198 Y111.062 E62.56537
G1 X129.198 Y110.735 E62.58168
G1 X129.058 Y110.148 E62.61179
G1 X129.05 Y95.051 E63.36498
G1 X128.549 Y94.301 E63.40998
G1 X127.875 Y92.225 E63.51887
G1 X127.956 Y90.428 E63.60862
G1 X128.174 Y89.239 E63.66892
G1 X129.013 Y87.416 E63.76904
G1 X130.475 Y85.89 E63.87448
G1 X131.943 Y85.014 E63.95976
G1 X133.669 Y84.408 E64.05103
G1 X135.516 Y84.16 E64.144
G1 X137.272 Y84.293 E64.23186
G1 X139.028 Y84.789 E64.3229
G1 X140.761 Y85.778 E64.42244
G1 X141.665 Y86.486 E64.47973
G1 X144.459 Y89.267 E64.6764
G1 X145.362 Y90.721 E64.7618
G1 X145.8 Y92.502 E64.8533
G1 X145.785 Y118.83 E66.16681
G1 X145.445 Y120.295 E66.24184
G1 X144.931 Y121.698 E66.31638
G1 X143.894 Y123.169 E66.40618
G1 X142.523 Y124.427 E66.49901
G1 X140.744 Y125.357 E66.59916
G1 X138.805 Y125.812 E66.69852
G1 X71.146 Y125.807 E70.07404
G1 X69.264 Y125.357 E70.17058
G1 X67.496 Y124.427 E70.27025
G1 X66.073 Y123.147 E70.36574
G1 X65.006 Y121.563 E70.46102
G1 X64.372 Y119.763 E70.55623
G1 X64.224 Y118.585 E70.61546
G1 X64.197 Y116.404 E70.72428
G1 X64.538 Y114.841 E70.80409
G1 X65.322 Y113.44 E70.88419
G1 X65.801 Y112.843 E70.92238
G1 X66.836 Y112.012 E70.9886
G0 F3600 X67.053 Y112.351
G1 F1800 X68.443 Y111.658 E71.06608
G1 X69.594 Y111.49 E71.12412
G1 X129.599 Y111.462 E74.11778
G1 X129.598 Y110.688 E74.15639
G1 X129.458 Y110.101 E74.1865
G1 X129.45 Y94.929 E74.94344
G1 X128.912 Y94.123 E74.99178
G1 X128.278 Y92.172 E75.09413
G1 X128.356 Y90.446 E75.18033
G1 X128.558 Y89.36 E75.23544
G1 X129.347 Y87.646 E75.32957
G1 X130.726 Y86.206 E75.42904
G1 X132.118 Y85.376 E75.5099
G1 X133.762 Y84.799 E75.59682
G1 X135.525 Y84.562 E75.68557
G1 X137.202 Y84.689 E75.76948
G1 X138.871 Y85.16 E75.856
G1 X140.515 Y86.094 E75.95033
G1 X141.383 Y86.77 E76.00522
G1 X144.144 Y89.518 E76.19956
G1 X144.99 Y90.88 E76.27955
G1 X145.4 Y92.548 E76.36525
G1 X145.385 Y118.783 E77.67412
G1 X145.069 Y120.157 E77.74446
G1 X144.573 Y121.511 E77.8164
G1 X143.59 Y122.905 E77.9015
G1 X142.292 Y124.096 E77.98938
G1 X140.6 Y124.98 E78.08462
G1 X138.761 Y125.412 E78.17887
G1 X71.193 Y125.407 E81.54985
G1 X69.405 Y124.98 E81.64156
G1 X67.727 Y124.097 E81.73616
G1 X66.379 Y122.884 E81.82663
G1 X65.365 Y121.379 E81.91717
G1 X64.764 Y119.673 E82.00741
G1 X64.624 Y118.58 E82.06239
G1 X64.598 Y116.445 E82.16891
G1 X64.916 Y114.985 E82.24346
G1 X65.634 Y113.691 E82.31729
G1 X66.088 Y113.126 E82.35345
G1 X67.053 Y112.351 E82.4152
G0 F3600 X67.272 Y112.688
G1 F1800 X68.563 Y112.045 E82.48715
G1 X69.652 Y111.886 E82.54206
G1 X130 Y111.862 E85.55283
G1 X129.998 Y110.641 E85.61375
G1 X129.858 Y110.054 E85.64385
G1 X129.85 Y94.807 E86.40453
G1 X129.275 Y93.945 E86.45623
G1 X128.681 Y92.119 E86.55202
G1 X128.756 Y90.464 E86.63468
G1 X128.942 Y89.481 E86.68459
G1 X129.681 Y87.876 E86.77274
G1 X130.977 Y86.522 E86.86625
G1 X132.293 Y85.738 E86.94268
G1 X133.855 Y85.19 E87.02526
G1 X135.534 Y84.964 E87.10978
G1 X137.132 Y85.085 E87.18973
G1 X138.717 Y85.532 E87.2719
G1 X140.269 Y86.41 E87.36086
G1 X141.137 Y87.086 E87.41574
G1 X143.827 Y89.766 E87.60519
G1 X144.617 Y91.038 E87.67989
G1 X145 Y92.595 E87.75988
G1 X144.985 Y118.737 E89.06411
G1 X144.693 Y120.019 E89.12971
G1 X144.215 Y121.324 E89.19905
G1 X143.286 Y122.641 E89.27946
G1 X142.059 Y123.767 E89.36254
G1 X140.46 Y124.603 E89.45256
G1 X138.717 Y125.012 E89.54188
G1 X71.24 Y125.007 E92.90832
G1 X69.546 Y124.603 E92.99521
G1 X67.958 Y123.767 E93.08474
G1 X66.683 Y122.619 E93.17034
G1 X65.725 Y121.197 E93.25588
G1 X65.156 Y119.583 E93.34126
G1 X65.024 Y118.575 E93.39198
G1 X64.999 Y116.486 E93.4962
G1 X65.294 Y115.129 E93.56549
G1 X65.946 Y113.942 E93.63305
G1 X66.373 Y113.411 E93.66705
G1 X67.272 Y112.688 E93.7246
G0 F3600 X67.489 Y113.027
G1 F1800 X68.683 Y112.432 E93.79116
G1 X69.71 Y112.282 E93.84294
G1 X130.4 Y112.262 E96.87077
G1 X130.398 Y110.594 E96.95399
G1 X130.258 Y110.007 E96.9841
G1 X130.25 Y94.686 E97.74847
G1 X129.638 Y93.767 E97.80355
G1 X129.084 Y92.066 E97.8928
G1 X129.156 Y90.482 E97.97191
G1 X129.327 Y89.601 E98.01668
G1 X130.015 Y88.106 E98.09879
G1 X131.228 Y86.838 E98.18633
G1 X132.466 Y86.101 E98.25821
G1 X133.95 Y85.58 E98.33668
G1 X135.543 Y85.366 E98.41687
G1 X137.063 Y85.481 E98.49292
G1 X138.564 Y85.904 E98.57072
G1 X140.023 Y86.726 E98.65427
G1 X140.891 Y87.402 E98.70916
G1 X143.51 Y90.014 E98.8937
G1 X144.245 Y91.197 E98.96318
G1 X144.6 Y92.641 E99.03737
G1 X144.585 Y118.693 E100.33711
G1 X144.317 Y119.881 E100.39787
G1 X143.857 Y121.137 E100.4646
G1 X142.982 Y122.377 E100.54031
G1 X141.828 Y123.436 E100.61845
G1 X140.316 Y124.226 E100.70356
G1 X138.673 Y124.612 E100.78777
G1 X71.287 Y124.607 E104.14967
G1 X69.687 Y124.226 E104.23172
G1 X68.189 Y123.437 E104.31619
G1 X66.987 Y122.354 E104.39691
G1 X66.085 Y121.015 E104.47746
G1 X65.548 Y119.492 E104.55802
G1 X65.421 Y118.523 E104.60678
G1 X65.4 Y116.527 E104.70637
G1 X65.673 Y115.269 E104.77059
G1 X66.258 Y114.192 E104.83174
G1 X66.657 Y113.695 E104.86353
G1 X67.489 Y113.027 E104.91677
G0 F3600 X67.706 Y113.366
G1 F1800 X68.803 Y112.819 E104.97792
G1 X69.768 Y112.678 E105.02658
G1 X130.8 Y112.662 E108.07148
G1 X130.798 Y110.547 E108.17699
G1 X130.658 Y109.96 E108.2071
G1 X130.65 Y94.543 E108.97626
G1 X130.539 Y94.407 E108.98502
G1 X130.001 Y93.59 E109.03382
G1 X129.487 Y92.013 E109.11657
G1 X129.549 Y90.558 E109.18923
G1 X129.711 Y89.722 E109.23171
G1 X130.35 Y88.334 E109.30795
G1 X131.478 Y87.154 E109.38939
G1 X132.638 Y86.464 E109.45672
G1 X134.043 Y85.971 E109.53101
G1 X135.552 Y85.768 E109.60697
G1 X136.994 Y85.877 E109.67912
G1 X138.408 Y86.275 E109.7524
G1 X139.777 Y87.042 E109.83069
G1 X140.645 Y87.718 E109.88558
G1 X143.195 Y90.265 E110.06539
G1 X143.873 Y91.356 E110.12948
G1 X144.2 Y92.687 E110.19786
G1 X144.185 Y118.65 E111.49315
G1 X143.941 Y119.743 E111.54903
G1 X143.499 Y120.95 E111.61316
G1 X142.68 Y122.11 E111.684
G1 X141.593 Y123.108 E111.75762
G1 X140.176 Y123.849 E111.8374
G1 X138.629 Y124.212 E111.91667
G1 X71.334 Y124.207 E115.27403
G1 X69.828 Y123.849 E115.35126
G1 X68.42 Y123.107 E115.43067
G1 X67.291 Y122.089 E115.50651
G1 X66.445 Y120.833 E115.58206
G1 X65.94 Y119.401 E115.65781
G1 X65.818 Y118.471 E115.70461
G1 X65.8 Y116.568 E115.79955
G1 X66.052 Y115.411 E115.85863
G1 X66.61 Y114.383 E115.91699
G1 X66.942 Y113.979 E115.94307
G1 X67.706 Y113.366 E115.99194
G0 F3600 X67.925 Y113.703
G1 F1800 X68.923 Y113.206 E116.04757
G1 X69.826 Y113.074 E116.0931
G1 X131.2 Y113.062 E119.15506
G1 X131.198 Y110.5 E119.28288
G1 X131.058 Y109.913 E119.31298
G1 X131.05 Y94.398 E120.08703
G1 X130.873 Y94.187 E120.10077
G1 X130.364 Y93.414 E120.14694
G1 X129.89 Y91.959 E120.22329
G1 X129.942 Y90.634 E120.28944
G1 X130.095 Y89.843 E120.32964
G1 X130.685 Y88.562 E120.4
G1 X131.727 Y87.472 E120.47523
G1 X132.811 Y86.827 E120.53816
G1 X134.138 Y86.361 E120.60833
G1 X135.561 Y86.17 E120.67996
G1 X136.925 Y86.273 E120.74821
G1 X138.253 Y86.647 E120.81704
G1 X139.531 Y87.358 E120.89
G1 X140.399 Y88.034 E120.94489
G1 X142.88 Y90.516 E121.11997
G1 X143.5 Y91.514 E121.17859
G1 X143.8 Y92.734 E121.24127
G1 X143.785 Y118.604 E122.53193
G1 X143.565 Y119.606 E122.58311
G1 X143.142 Y120.762 E122.64452
G1 X142.378 Y121.843 E122.71056
G1 X141.36 Y122.778 E122.77952
G1 X140.032 Y123.472 E122.85428
G1 X138.585 Y123.812 E122.92843
G1 X71.38 Y123.807 E126.2813
G1 X69.97 Y123.472 E126.35361
G1 X68.651 Y122.777 E126.42799
G1 X67.597 Y121.826 E126.49881
G1 X66.804 Y120.649 E126.56962
G1 X66.332 Y119.31 E126.64045
G1 X66.215 Y118.419 E126.68529
G1 X66.2 Y116.61 E126.77554
G1 X66.431 Y115.55 E126.82966
G1 X66.924 Y114.631 E126.88169
G1 X67.193 Y114.291 E126.90332
G1 X67.925 Y113.703 E126.95017
G0 F3600 X68.142 Y114.042
G1 F1800 X69.043 Y113.593 E127.00039
G1 X69.884 Y113.47 E127.04279
G1 X131.6 Y113.462 E130.12182
G1 X131.598 Y110.453 E130.27194
G1 X131.458 Y109.866 E130.30204
G1 X131.45 Y94.25 E131.08113
G1 X131.207 Y93.967 E131.09974
G1 X130.727 Y93.238 E131.14329
G1 X130.293 Y91.905 E131.21323
G1 X130.335 Y90.71 E131.27288
G1 X130.479 Y89.964 E131.31079
G1 X131.02 Y88.79 E131.37528
G1 X131.976 Y87.79 E131.4443
G1 X132.986 Y87.189 E131.50293
G1 X134.231 Y86.752 E131.56876
G1 X135.57 Y86.572 E131.63617
G1 X136.856 Y86.669 E131.70051
G1 X138.098 Y87.019 E131.76488
G1 X139.337 Y87.708 E131.83561
G1 X140.116 Y88.317 E131.88494
G1 X142.565 Y90.767 E132.05777
G1 X143.128 Y91.673 E132.11099
G1 X143.4 Y92.78 E132.16786
G1 X143.385 Y118.559 E133.45398
G1 X143.174 Y119.52 E133.50306
G1 X142.786 Y120.572 E133.559
G1 X142.076 Y121.576 E133.62035
G1 X141.127 Y122.448 E133.68465
G1 X139.889 Y123.095 E133.75434
G1 X138.54 Y123.412 E133.82348
G1 X71.426 Y123.407 E137.17181
G1 X70.112 Y123.095 E137.23919
G1 X68.882 Y122.447 E137.30855
G1 X67.903 Y121.563 E137.37435
G1 X67.163 Y120.465 E137.44041
G1 X66.724 Y119.219 E137.50632
G1 X66.612 Y118.367 E137.54919
G1 X66.6 Y116.652 E137.63476
G1 X66.81 Y115.691 E137.68383
G1 X67.277 Y114.82 E137.73314
G1 X67.479 Y114.574 E137.74902
G1 X68.142 Y114.042 E137.79143
G0 F3600 X68.361 Y114.379
G1 F1800 X69.163 Y113.98 E137.83612
G1 X69.942 Y113.866 E137.8754
G1 X132 Y113.862 E140.97148
G1 X131.998 Y110.406 E141.1439
G1 X131.858 Y109.819 E141.17401
G1 X131.85 Y94.099 E141.95829
G1 X131.541 Y93.747 E141.98165
G1 X131.09 Y93.062 E142.02257
G1 X130.695 Y91.85 E142.08617
G1 X130.728 Y90.786 E142.13928
G1 X130.863 Y90.086 E142.17484
G1 X131.356 Y89.017 E142.23357
G1 X132.225 Y88.108 E142.29631
G1 X133.161 Y87.551 E142.35065
G1 X134.324 Y87.143 E142.41214
G1 X135.579 Y86.974 E142.47532
G1 X136.786 Y87.065 E142.53571
G1 X137.946 Y87.392 E142.59584
