;FLAVOR:Marlin
;TIME:4716
;Filament used: 4.5465m
;Layer height: 0.15
;MINX:62.245
;MINY:73.15
;MINZ:0.3
;MAXX:147.764
;MAXY:138.813
;MAXZ:34.95
;TARGET_MACHINE.NAME:Unknown
;Generated with Cura_SteamEngine 5.12.0
M104 S200
M105
M109 S200
G28 ;Home
G1 Z15.0 F6000 ;Move the platform down 15mm
;Prime the extruder
G92 E0
G1 F200 E3
G92 E0
M82 ;absolute extrusion mode
G92 E0
G92 E0
G1 F1500 E-6.5
;LAYER_COUNT:232
;LAYER:0
M107
G0 F3600 X67.666 Y75.45 Z0.3
;TYPE:SKIRT
G1 F1500 E0
G1 F1800 X68.705 Y74.741 E0.06275
G1 X70.244 Y73.917 E0.14985
G1 X72.451 Y73.306 E0.2641
G1 X74.589 Y73.15 E0.37105
G1 X76.841 Y73.46 E0.48446
G1 X79.012 Y74.242 E0.59958
G1 X80.672 Y75.25 E0.69647
G1 X82.194 Y76.728 E0.80232
G1 X83.549 Y78.926 E0.93114
G1 X84.178 Y81.73 E1.07451
G1 X83.96 Y84.105 E1.1935
G1 X83.196 Y86.408 E1.31455
G1 X82.5 Y87.327 E1.37206
G1 X82.5 Y91.213 E1.56594
G1 X138.139 Y91.217 E4.34178
G1 X140.354 Y91.703 E4.45491
G1 X142.442 Y92.638 E4.56905
G1 X144.291 Y93.992 E4.68339
G1 X145.762 Y95.623 E4.79296
G1 X146.986 Y97.765 E4.91605
G1 X147.627 Y100.14 E5.03878
G1 X147.764 Y101.173 E5.09076
G1 X147.735 Y106.029 E5.33303
G1 X147.386 Y107.938 E5.42985
G1 X146.9 Y109.438 E5.50852
G1 X145.753 Y111.41 E5.62233
G1 X144.281 Y113.043 E5.73202
G1 X142.326 Y114.453 E5.85227
G1 X140.287 Y115.343 E5.96327
G1 X139.767 Y115.459 E5.98985
G1 X139.793 Y127.466 E6.58888
G1 X139.898 Y128.116 E6.62173
G1 X139.852 Y129.92 E6.71176
G1 X139.307 Y131.841 E6.81138
G1 X138.838 Y132.784 E6.86393
G1 X137.623 Y134.358 E6.96313
G1 X134.503 Y136.776 E7.16006
G1 X131.856 Y137.813 E7.30189
G1 X125.4 Y137.825 E7.62398
G1 X124.811 Y138.154 E7.65764
G1 X122.5 Y138.813 E7.77754
G1 X119.31 Y138.811 E7.93668
G1 X116.778 Y138.211 E8.06651
G1 X114.408 Y136.75 E8.20541
G1 X112.511 Y134.535 E8.3509
G1 X111.925 Y132.96 E8.43474
G1 X111.205 Y132.002 E8.49453
G1 X110.442 Y130.217 E8.59138
G1 X110.243 Y128.87 E8.65931
G1 X110.193 Y115.81 E9.31088
G1 X72.044 Y115.813 E11.21414
G1 X69.689 Y115.335 E11.33403
G1 X67.595 Y114.416 E11.44812
G1 X65.752 Y113.076 E11.5618
G1 X64.228 Y111.39 E11.67519
G1 X63.028 Y109.292 E11.79577
G1 X62.4 Y107.023 E11.91322
G1 X62.256 Y106.051 E11.96225
G1 X62.245 Y83.347 E13.09495
G1 X62.514 Y81.568 E13.18472
G1 X63.787 Y79.175 E13.31995
G1 X67.666 Y75.45 E13.58825
G0 F3600 X67.892 Y75.78
G1 F1800 X68.894 Y75.094 E13.64884
G1 X70.397 Y74.289 E13.7339
G1 X72.517 Y73.702 E13.84365
G1 X74.577 Y73.552 E13.94669
G1 X76.746 Y73.851 E14.05593
G1 X78.835 Y74.603 E14.16669
G1 X80.426 Y75.569 E14.25955
G1 X81.881 Y76.982 E14.36074
G1 X83.174 Y79.079 E14.48365
G1 X83.774 Y81.756 E14.62052
G1 X83.566 Y84.02 E14.73395
G1 X82.837 Y86.219 E14.84953
G1 X82.1 Y87.192 E14.91042
G1 X82.1 Y91.613 E15.13099
G1 X138.094 Y91.617 E17.92454
G1 X140.231 Y92.086 E18.03369
G1 X142.239 Y92.985 E18.14346
G1 X144.021 Y94.29 E18.25365
G1 X145.438 Y95.861 E18.3592
G1 X146.613 Y97.917 E18.47734
G1 X147.23 Y100.193 E18.59499
G1 X147.367 Y101.226 E18.64698
G1 X147.341 Y105.958 E18.88306
G1 X147.005 Y107.815 E18.97721
G1 X146.532 Y109.275 E19.05378
G1 X145.428 Y111.173 E19.16333
G1 X144.011 Y112.745 E19.26891
G1 X142.13 Y114.102 E19.38463
G1 X140.127 Y114.976 E19.49366
G1 X139.33 Y115.14 E19.53425
G1 X139.367 Y115.431 E19.54889
G1 X139.393 Y127.499 E20.15096
G1 X139.497 Y128.143 E20.18351
G1 X139.453 Y129.859 E20.26915
G1 X138.932 Y131.698 E20.36451
G1 X138.498 Y132.57 E20.4131
G1 X137.337 Y134.074 E20.50789
G1 X134.303 Y136.425 E20.69939
G1 X131.781 Y137.413 E20.83452
G1 X125.296 Y137.425 E21.15806
G1 X124.659 Y137.781 E21.19446
G1 X122.443 Y138.413 E21.30943
G1 X119.356 Y138.411 E21.46344
G1 X116.933 Y137.837 E21.58767
G1 X114.672 Y136.443 E21.72019
G1 X112.861 Y134.329 E21.85906
G1 X112.28 Y132.766 E21.94226
G1 X111.554 Y131.801 E22.0025
G1 X110.831 Y130.108 E22.09435
G1 X110.639 Y128.811 E22.15976
G1 X110.592 Y115.41 E22.82834
G1 X72.085 Y115.413 E24.74947
G1 X69.809 Y114.951 E24.86533
G1 X67.797 Y114.068 E24.97495
G1 X66.02 Y112.776 E25.08456
G1 X64.554 Y111.154 E25.19364
G1 X63.399 Y109.135 E25.30968
G1 X62.796 Y106.964 E25.4221
G1 X62.652 Y105.992 E25.47112
G1 X62.641 Y83.407 E26.59789
G1 X62.9 Y81.694 E26.68432
G1 X64.111 Y79.418 E26.81295
G1 X67.892 Y75.78 E27.07472
G0 F3600 X68.119 Y76.11
G1 F1800 X69.083 Y75.447 E27.13309
G1 X70.546 Y74.663 E27.2159
G1 X72.588 Y74.098 E27.3216
G1 X74.565 Y73.954 E27.4205
G1 X76.65 Y74.241 E27.5255
G1 X78.66 Y74.965 E27.63209
G1 X80.18 Y75.888 E27.7208
G1 X81.568 Y77.236 E27.81733
G1 X82.798 Y79.231 E27.93426
G1 X83.37 Y81.782 E28.06469
G1 X83.172 Y83.935 E28.17256
G1 X82.477 Y86.032 E28.28278
G1 X81.7 Y87.058 E28.34698
G1 X81.7 Y92.013 E28.59419
G1 X138.049 Y92.017 E31.40545
G1 X140.106 Y92.468 E31.51052
G1 X142.037 Y93.333 E31.61608
G1 X143.751 Y94.588 E31.72206
G1 X145.114 Y96.099 E31.82358
G1 X146.24 Y98.069 E31.93679
G1 X146.833 Y100.246 E32.04936
G1 X146.97 Y101.279 E32.10135
G1 X146.941 Y105.956 E32.33469
G1 X146.624 Y107.692 E32.42273
G1 X146.164 Y109.112 E32.4972
G1 X145.103 Y110.936 E32.60247
G1 X143.741 Y112.447 E32.70396
G1 X141.934 Y113.751 E32.81514
G1 X140.004 Y114.593 E32.92019
G1 X138.883 Y114.823 E32.97728
G1 X138.967 Y115.432 E33.00795
G1 X138.993 Y127.532 E33.61162
G1 X139.096 Y128.17 E33.64387
G1 X139.054 Y129.798 E33.72511
G1 X138.557 Y131.555 E33.81621
G1 X138.158 Y132.356 E33.86086
G1 X137.051 Y133.79 E33.95124
G1 X134.103 Y136.074 E34.13729
G1 X131.706 Y137.013 E34.26572
G1 X125.192 Y137.025 E34.59071
G1 X124.507 Y137.408 E34.62986
G1 X122.386 Y138.013 E34.7399
G1 X119.402 Y138.011 E34.88877
G1 X117.09 Y137.463 E35.00732
G1 X114.934 Y136.134 E35.13367
G1 X113.211 Y134.123 E35.26579
G1 X112.634 Y132.572 E35.34835
G1 X111.903 Y131.6 E35.40903
G1 X111.219 Y129.999 E35.49589
G1 X111.035 Y128.753 E35.55872
G1 X110.992 Y115.517 E36.21907
G1 X111.088 Y115.01 E36.24482
G1 X72.126 Y115.013 E38.18864
G1 X69.929 Y114.567 E38.30048
G1 X67.999 Y113.72 E38.40564
G1 X66.288 Y112.476 E38.51118
G1 X64.88 Y110.918 E38.61594
G1 X63.771 Y108.979 E38.72739
G1 X63.192 Y106.905 E38.83481
G1 X63.048 Y105.933 E38.88384
G1 X63.037 Y83.467 E40.00467
G1 X63.286 Y81.82 E40.08777
G1 X64.434 Y79.663 E40.20968
G1 X68.119 Y76.11 E40.46506
G0 F3600 X68.346 Y76.44
G1 F1800 X69.31 Y75.777 E40.52343
G1 X70.697 Y75.036 E40.60189
G1 X72.654 Y74.494 E40.7032
G1 X74.553 Y74.356 E40.79819
G1 X76.555 Y74.632 E40.89901
G1 X78.483 Y75.326 E41.00124
G1 X79.934 Y76.207 E41.08593
G1 X81.253 Y77.488 E41.17766
G1 X82.423 Y79.386 E41.2889
G1 X82.966 Y81.808 E41.41273
G1 X82.778 Y83.85 E41.51504
G1 X82.117 Y85.845 E41.61989
G1 X81.3 Y86.924 E41.68742
G1 X81.3 Y92.413 E41.96126
G1 X138.004 Y92.417 E44.79024
G1 X139.983 Y92.851 E44.89132
G1 X141.834 Y93.68 E44.9925
G1 X143.481 Y94.886 E45.09434
G1 X144.79 Y96.337 E45.19184
G1 X145.866 Y98.22 E45.30004
G1 X146.436 Y100.299 E45.40759
G1 X146.573 Y101.332 E45.45958
G1 X146.541 Y105.953 E45.69012
G1 X146.243 Y107.569 E45.77211
G1 X145.796 Y108.949 E45.84448
G1 X144.778 Y110.699 E45.94548
G1 X143.471 Y112.149 E46.04287
G1 X141.738 Y113.4 E46.14951
G1 X139.882 Y114.209 E46.25052
G1 X138.432 Y114.507 E46.32437
G1 X138.567 Y115.433 E46.37106
G1 X138.593 Y127.565 E46.97632
G1 X138.695 Y128.197 E47.00826
G1 X138.655 Y129.737 E47.08512
G1 X138.182 Y131.412 E47.17195
G1 X137.818 Y132.142 E47.21265
G1 X136.765 Y133.506 E47.29862
G1 X133.903 Y135.723 E47.47923
G1 X131.631 Y136.613 E47.60097
G1 X125.088 Y136.625 E47.9274
G1 X124.355 Y137.035 E47.9693
G1 X122.329 Y137.613 E48.07442
G1 X119.448 Y137.611 E48.21815
G1 X117.245 Y137.089 E48.3311
G1 X115.198 Y135.827 E48.45107
G1 X113.562 Y133.917 E48.57654
G1 X112.985 Y132.367 E48.65906
G1 X112.909 Y132.278 E48.66489
G1 X112.252 Y131.398 E48.71968
G1 X111.607 Y129.89 E48.80151
G1 X111.431 Y128.695 E48.86177
G1 X111.392 Y115.516 E49.51928
G1 X111.579 Y114.61 E49.56543
G1 X72.167 Y114.613 E51.53171
G1 X70.049 Y114.183 E51.63953
G1 X68.201 Y113.372 E51.74021
G1 X66.556 Y112.176 E51.84168
G1 X65.206 Y110.682 E51.94214
G1 X64.143 Y108.823 E52.04898
G1 X63.588 Y106.846 E52.15142
G1 X63.444 Y105.874 E52.20045
G1 X63.433 Y83.527 E53.31534
G1 X63.672 Y81.946 E53.39511
G1 X64.757 Y79.908 E53.5103
G1 X68.346 Y76.44 E53.75929
G0 F3600 X68.573 Y76.769
G1 F1800 X69.499 Y76.13 E53.81542
G1 X70.85 Y75.408 E53.89185
G1 X72.72 Y74.89 E53.98865
G1 X74.541 Y74.758 E54.07974
G1 X76.459 Y75.022 E54.17633
G1 X78.308 Y75.688 E54.27438
G1 X79.688 Y76.526 E54.35493
G1 X80.938 Y77.74 E54.44187
G1 X82.048 Y79.541 E54.54741
G1 X82.562 Y81.834 E54.66465
G1 X82.384 Y83.765 E54.7614
G1 X81.757 Y85.658 E54.86088
G1 X80.9 Y86.79 E54.93172
G1 X80.9 Y92.813 E55.23221
G1 X137.959 Y92.817 E58.07889
G1 X139.86 Y93.234 E58.17599
G1 X141.631 Y94.027 E58.2728
G1 X143.211 Y95.184 E58.3705
G1 X144.466 Y96.575 E58.46397
G1 X145.493 Y98.372 E58.56723
G1 X146.039 Y100.352 E58.6697
G1 X146.176 Y101.385 E58.72169
G1 X146.147 Y105.881 E58.946
G1 X145.862 Y107.446 E59.02536
G1 X145.428 Y108.786 E59.09563
G1 X144.453 Y110.462 E59.19237
G1 X143.201 Y111.851 E59.28566
G1 X141.542 Y113.049 E59.38775
G1 X139.759 Y113.826 E59.48479
G1 X137.981 Y114.191 E59.57534
G1 X138.171 Y115.491 E59.64089
G1 X138.193 Y127.598 E60.24491
G1 X138.294 Y128.224 E60.27654
G1 X138.256 Y129.676 E60.34901
G1 X137.807 Y131.269 E60.43158
G1 X137.48 Y131.925 E60.46815
G1 X136.477 Y133.223 E60.54999
G1 X133.703 Y135.372 E60.72505
G1 X131.556 Y136.213 E60.84009
G1 X124.984 Y136.225 E61.16797
G1 X124.203 Y136.662 E61.21262
G1 X122.272 Y137.213 E61.3128
G1 X119.494 Y137.211 E61.4514
G1 X117.402 Y136.715 E61.55866
G1 X115.46 Y135.518 E61.67247
G1 X113.912 Y133.711 E61.79118
G1 X113.335 Y132.159 E61.87379
G1 X113.23 Y132.039 E61.88175
G1 X112.601 Y131.196 E61.93422
G1 X111.995 Y129.781 E62.01102
G1 X111.827 Y128.637 E62.0687
G1 X111.792 Y115.558 E62.72122
G1 X112.07 Y114.21 E62.78989
G1 X72.208 Y114.213 E64.77861
G1 X70.169 Y113.799 E64.88241
G1 X68.403 Y113.024 E64.97863
G1 X66.824 Y111.876 E65.07603
G1 X65.532 Y110.446 E65.17217
G1 X64.515 Y108.668 E65.27437
G1 X63.984 Y106.787 E65.37188
G1 X63.84 Y105.815 E65.4209
G1 X63.829 Y83.587 E66.52986
G1 X64.058 Y82.072 E66.6063
G1 X65.081 Y80.151 E66.71488
G1 X68.573 Y76.769 E66.95741
G0 F3600 X68.801 Y77.098
G1 F1800 X69.688 Y76.483 E67.01126
G1 X71.003 Y75.78 E67.08565
G1 X72.786 Y75.286 E67.17796
G1 X74.529 Y75.16 E67.26514
G1 X76.364 Y75.413 E67.35756
G1 X78.131 Y76.049 E67.45125
G1 X79.442 Y76.845 E67.52777
G1 X80.625 Y77.994 E67.61005
G1 X81.673 Y79.694 E67.70968
G1 X82.158 Y81.86 E67.82042
G1 X81.99 Y83.68 E67.9116
G1 X81.397 Y85.471 E68.00573
G1 X80.5 Y86.656 E68.07988
G1 X80.5 Y93.213 E68.40701
G1 X137.914 Y93.217 E71.2714
G1 X139.737 Y93.617 E71.36452
G1 X141.428 Y94.374 E71.45695
G1 X142.941 Y95.482 E71.55051
G1 X144.14 Y96.811 E71.63981
G1 X145.122 Y98.528 E71.73849
G1 X145.642 Y100.405 E71.83566
G1 X145.779 Y101.438 E71.88765
G1 X145.747 Y105.878 E72.10917
G1 X145.481 Y107.323 E72.18247
G1 X145.06 Y108.623 E72.25064
G1 X144.128 Y110.225 E72.34311
G1 X142.931 Y111.553 E72.4323
G1 X141.346 Y112.698 E72.52986
G1 X139.637 Y113.442 E72.62285
G1 X137.893 Y113.801 E72.71168
G1 X137.335 Y113.809 E72.73952
G1 X137.598 Y114.336 E72.76891
G1 X137.775 Y115.549 E72.83006
G1 X137.798 Y127.505 E73.42655
G1 X137.791 Y127.62 E73.4323
G1 X137.893 Y128.251 E73.46419
G1 X137.857 Y129.617 E73.53236
G1 X137.433 Y131.122 E73.61037
G1 X137.14 Y131.709 E73.6431
G1 X136.189 Y132.94 E73.72071
G1 X133.503 Y135.021 E73.89023
G1 X131.481 Y135.813 E73.99857
G1 X124.88 Y135.825 E74.32789
G1 X124.051 Y136.289 E74.37529
G1 X122.215 Y136.813 E74.47055
G1 X119.54 Y136.811 E74.604
G1 X117.557 Y136.341 E74.70568
G1 X115.724 Y135.211 E74.8131
G1 X114.262 Y133.505 E74.9252
G1 X113.683 Y131.948 E75.00807
G1 X113.551 Y131.8 E75.01797
G1 X112.951 Y130.996 E75.06802
G1 X112.383 Y129.67 E75.13998
G1 X112.223 Y128.579 E75.195
G1 X112.192 Y115.6 E75.84252
G1 X112.502 Y114.096 E75.91914
G1 X112.638 Y113.81 E75.93493
G1 X72.248 Y113.813 E77.95
G1 X70.29 Y113.416 E78.04967
G1 X68.605 Y112.676 E78.14149
G1 X67.092 Y111.576 E78.23481
G1 X65.858 Y110.21 E78.32665
G1 X64.887 Y108.512 E78.42424
G1 X64.38 Y106.728 E78.51677
G1 X64.236 Y105.756 E78.56579
G1 X64.225 Y83.647 E79.66881
G1 X64.444 Y82.198 E79.74192
G1 X65.404 Y80.395 E79.84383
G1 X68.801 Y77.098 E80.08001
G0 F3600 X69.08 Y77.385
G1 F1800 X69.877 Y76.836 E80.12829
G1 X71.152 Y76.154 E80.20043
G1 X72.857 Y75.682 E80.28869
G1 X74.517 Y75.562 E80.37173
G1 X76.268 Y75.803 E80.45991
G1 X77.956 Y76.411 E80.54942
G1 X79.196 Y77.164 E80.62179
G1 X80.31 Y78.246 E80.69927
G1 X81.298 Y79.849 E80.79322
G1 X81.754 Y81.886 E80.89736
G1 X81.596 Y83.595 E80.98298
G1 X81.037 Y85.284 E81.07174
G1 X80.1 Y86.522 E81.1492
G1 X80.1 Y93.613 E81.50298
G1 X137.869 Y93.617 E84.38508
G1 X139.612 Y93.999 E84.47411
G1 X141.226 Y94.722 E84.56234
G1 X142.671 Y95.78 E84.65169
G1 X143.814 Y97.047 E84.73682
G1 X144.751 Y98.685 E84.83097
G1 X145.245 Y100.458 E84.92279
G1 X145.382 Y101.491 E84.97478
G1 X145.353 Y105.807 E85.19011
G1 X145.1 Y107.2 E85.26074
G1 X144.692 Y108.46 E85.32682
G1 X143.803 Y109.988 E85.41501
G1 X142.661 Y111.255 E85.50011
G1 X141.15 Y112.347 E85.59312
G1 X139.515 Y113.058 E85.68207
G1 X137.812 Y113.409 E85.76882
G1 X136.689 Y113.409 E85.82485
G1 X137.211 Y114.456 E85.88321
G1 X137.379 Y115.607 E85.94125
G1 X137.398 Y127.506 E86.53489
G1 X137.388 Y127.637 E86.54144
G1 X137.492 Y128.278 E86.57384
G1 X137.458 Y129.557 E86.63767
G1 X137.058 Y130.976 E86.71123
G1 X136.8 Y131.493 E86.74005
G1 X135.901 Y132.657 E86.81343
G1 X133.303 Y134.67 E86.9774
G1 X131.406 Y135.413 E87.07904
G1 X124.897 Y135.425 E87.40378
G1 X124.699 Y135.469 E87.4139
G1 X123.899 Y135.916 E87.45962
G1 X122.158 Y136.413 E87.54995
G1 X119.586 Y136.411 E87.67826
G1 X117.712 Y135.967 E87.77435
G1 X115.988 Y134.904 E87.87539
G1 X114.612 Y133.299 E87.98086
G1 X114.031 Y131.736 E88.06406
G1 X113.872 Y131.561 E88.07585
G1 X113.301 Y130.796 E88.12348
G1 X112.771 Y129.559 E88.19062
G1 X112.619 Y128.521 E88.24296
G1 X112.592 Y115.642 E88.88549
G1 X112.894 Y114.177 E88.96012
G1 X113.306 Y113.41 E89.00356
G1 X72.287 Y113.413 E91.05
G1 X70.411 Y113.033 E91.1455
G1 X68.807 Y112.328 E91.23291
G1 X67.36 Y111.276 E91.32216
G1 X66.184 Y109.974 E91.40969
G1 X65.259 Y108.357 E91.50263
G1 X64.776 Y106.669 E91.59023
G1 X64.632 Y105.697 E91.63925
G1 X64.621 Y83.707 E92.73634
G1 X64.83 Y82.324 E92.80612
G1 X65.727 Y80.639 E92.90135
G1 X69.08 Y77.385 E93.13446
G0 F3600 X69.308 Y77.714
G1 F1800 X70.066 Y77.189 E93.18046
G1 X71.305 Y76.526 E93.25057
G1 X72.923 Y76.078 E93.33433
G1 X74.505 Y75.964 E93.41346
G1 X76.173 Y76.194 E93.49746
G1 X77.779 Y76.772 E93.58262
G1 X78.95 Y77.483 E93.65096
G1 X79.997 Y78.5 E93.72379
G1 X80.923 Y80.002 E93.81182
G1 X81.35 Y81.911 E93.90941
G1 X81.202 Y83.51 E93.98953
G1 X80.677 Y85.097 E94.07292
G1 X79.7 Y86.388 E94.15369
G1 X79.7 Y94.013 E94.53411
G1 X137.824 Y94.017 E97.43393
G1 X139.489 Y94.382 E97.51897
G1 X141.023 Y95.069 E97.60282
G1 X142.401 Y96.078 E97.68803
G1 X143.488 Y97.283 E97.76899
G1 X144.379 Y98.841 E97.85854
G1 X144.848 Y100.511 E97.94508
G1 X144.985 Y101.544 E97.99706
G1 X144.953 Y105.804 E98.2096
G1 X144.719 Y107.077 E98.27418
G1 X144.324 Y108.297 E98.33815
G1 X143.478 Y109.751 E98.42208
G1 X142.391 Y110.957 E98.50308
G1 X140.952 Y111.997 E98.59166
G1 X139.395 Y112.674 E98.67636
G1 X137.77 Y113.009 E98.75914
G1 X135.957 Y113.009 E98.84959
G1 X136.201 Y113.326 E98.86955
G1 X136.824 Y114.576 E98.93923
G1 X136.983 Y115.665 E98.99413
G1 X136.999 Y127.477 E99.58344
G1 X136.986 Y127.655 E99.59234
G1 X137.091 Y128.305 E99.62519
G1 X137.059 Y129.498 E99.68473
G1 X136.684 Y130.829 E99.75372
G1 X136.459 Y131.28 E99.77886
G1 X135.615 Y132.373 E99.84776
G1 X133.103 Y134.319 E100.00629
G1 X131.331 Y135.013 E100.10123
G1 X124.851 Y135.025 E100.42452
G1 X124.557 Y135.09 E100.43954
G1 X123.747 Y135.543 E100.48585
G1 X122.101 Y136.013 E100.57125
G1 X119.632 Y136.011 E100.69443
G1 X117.869 Y135.593 E100.78482
G1 X116.25 Y134.595 E100.87971
G1 X114.963 Y133.093 E100.97839
G1 X114.379 Y131.524 E101.06191
G1 X114.193 Y131.322 E101.07561
G1 X113.651 Y130.596 E101.12081
G1 X113.159 Y129.448 E101.18312
