;FLAVOR:Marlin
;TIME:1792
;Filament used: 1.60056m
;Layer height: 0.15
;MINX:82.554
;MINY:83.664
;MINZ:0.3
;MAXX:127.398
;MAXY:126.337
;MAXZ:15.75
;TARGET_MACHINE.NAME:Unknown
;Generated with Cura_SteamEngine 5.12.0
M104 S200
M105
M109 S200
G28 ;Home
G1 Z15.0 F6000 ;Move the platform down 15mm
;Prime the extruder
G92 E0
G1 F200 E3
G92 E0
M82 ;absolute extrusion mode
G92 E0
G92 E0
G1 F1500 E-6.5
;LAYER_COUNT:104
;LAYER:0
M107
G0 F3600 X93.291 Y87.552 Z0.3
;TYPE:SKIRT
G1 F1500 E0
G1 F1800 X94.586 Y86.4 E0.08647
G1 X96.518 Y85.356 E0.19603
G1 X97.622 Y84.9 E0.25562
G1 X98.608 Y84.582 E0.30731
G1 X99.388 Y84.367 E0.34768
G1 X100.178 Y84.185 E0.38812
G1 X100.897 Y84.043 E0.42469
G1 X101.635 Y83.918 E0.46203
G1 X102.43 Y83.809 E0.50206
G1 X103.175 Y83.737 E0.53941
G1 X103.977 Y83.683 E0.57951
G1 X104.693 Y83.665 E0.61524
G1 X105.526 Y83.664 E0.6568
G1 X106.237 Y83.699 E0.69231
G1 X107.066 Y83.76 E0.73378
G1 X107.772 Y83.84 E0.76923
G1 X108.508 Y83.94 E0.80629
G1 X109.276 Y84.069 E0.84514
G1 X110.058 Y84.228 E0.88495
G1 X110.894 Y84.433 E0.9279
G1 X112.763 Y85.052 E1.02612
G1 X114.675 Y86.005 E1.13271
G1 X116.084 Y86.993 E1.21856
G1 X117.267 Y88.021 E1.29675
G1 X118.699 Y89.991 E1.41826
G1 X126.124 Y102.898 E2.16114
G1 X126.89 Y104.808 E2.26381
G1 X127.261 Y106.327 E2.34182
G1 X127.398 Y107.481 E2.39979
G1 X127.379 Y109.636 E2.50731
G1 X127.28 Y110.383 E2.54491
G1 X126.997 Y111.706 E2.6124
G1 X126.803 Y112.446 E2.65057
G1 X126.593 Y113.156 E2.68751
G1 X126.353 Y113.88 E2.72556
G1 X126.132 Y114.483 E2.7576
G1 X125.786 Y115.314 E2.80251
G1 X125.481 Y115.989 E2.83947
G1 X125.111 Y116.724 E2.88052
G1 X124.754 Y117.383 E2.91791
G1 X124.362 Y118.061 E2.95698
G1 X123.953 Y118.709 E2.99521
G1 X123.532 Y119.332 E3.03273
G1 X123.073 Y119.959 E3.07149
G1 X122.601 Y120.563 E3.10974
G1 X122.127 Y121.132 E3.14668
G1 X121.622 Y121.702 E3.18468
G1 X121.086 Y122.256 E3.22313
G1 X120.587 Y122.748 E3.2581
G1 X119.052 Y124.05 E3.35852
G1 X118.388 Y124.489 E3.39823
G1 X116.302 Y125.521 E3.51434
G1 X115.113 Y125.908 E3.57672
G1 X113.445 Y126.232 E3.66149
G1 X111.972 Y126.337 E3.73517
G1 X96.816 Y126.269 E4.49131
G1 X95.635 Y126.091 E4.5509
G1 X93.763 Y125.618 E4.64723
G1 X91.841 Y124.618 E4.75532
G1 X90.489 Y123.689 E4.83716
G1 X89.375 Y122.711 E4.91112
G1 X88.778 Y122.12 E4.95303
G1 X88.276 Y121.584 E4.98966
G1 X87.776 Y121.016 E5.02742
G1 X87.262 Y120.395 E5.06763
G1 X86.8 Y119.793 E5.10549
G1 X86.368 Y119.19 E5.1425
G1 X85.931 Y118.538 E5.18166
G1 X85.529 Y117.882 E5.22004
G1 X85.171 Y117.256 E5.25602
G1 X84.785 Y116.528 E5.29713
G1 X84.446 Y115.827 E5.33598
G1 X84.145 Y115.145 E5.37317
G1 X83.867 Y114.457 E5.41019
G1 X83.615 Y113.761 E5.44712
G1 X83.351 Y112.969 E5.48877
G1 X83.138 Y112.227 E5.52729
G1 X82.927 Y111.377 E5.57098
G1 X82.554 Y109.628 E5.6602
G1 X82.623 Y107.121 E5.78532
G1 X82.713 Y106.443 E5.81944
G1 X83.224 Y104.472 E5.92103
G1 X83.954 Y102.744 E6.01462
G1 X91.755 Y89.214 E6.79379
G1 X93.291 Y87.552 E6.9067
G0 F3600 X93.557 Y87.851
G1 F1800 X94.816 Y86.731 E6.99077
G1 X96.671 Y85.726 E7.09602
G1 X97.775 Y85.27 E7.15561
G1 X98.714 Y84.968 E7.20483
G1 X99.478 Y84.757 E7.24437
G1 X100.255 Y84.577 E7.28416
G1 X100.964 Y84.437 E7.32021
G1 X101.689 Y84.314 E7.3569
G1 X102.469 Y84.207 E7.39618
G1 X103.202 Y84.136 E7.43292
G1 X103.987 Y84.083 E7.47217
G1 X104.693 Y84.065 E7.50741
G1 X105.507 Y84.064 E7.54802
G1 X106.208 Y84.098 E7.58303
G1 X107.021 Y84.157 E7.6237
G1 X107.718 Y84.236 E7.6587
G1 X108.442 Y84.335 E7.69515
G1 X109.196 Y84.461 E7.73329
G1 X109.963 Y84.617 E7.77234
G1 X110.768 Y84.813 E7.81368
G1 X112.637 Y85.432 E7.9119
G1 X114.496 Y86.363 E8.01563
G1 X115.822 Y87.295 E8.09649
G1 X116.969 Y88.292 E8.17231
G1 X118.375 Y90.226 E8.2916
G1 X125.777 Y103.097 E9.03235
G1 X126.502 Y104.904 E9.12949
G1 X126.864 Y106.375 E9.20507
G1 X126.998 Y107.478 E9.2605
G1 X126.982 Y109.583 E9.36552
G1 X126.883 Y110.33 E9.40312
G1 X126.61 Y111.605 E9.46817
G1 X126.42 Y112.332 E9.50566
G1 X126.213 Y113.03 E9.54198
G1 X125.977 Y113.742 E9.5794
G1 X125.756 Y114.345 E9.61144
G1 X125.421 Y115.149 E9.6549
G1 X125.116 Y115.824 E9.69185
G1 X124.759 Y116.534 E9.7315
G1 X124.408 Y117.183 E9.76831
G1 X124.024 Y117.848 E9.80662
G1 X123.622 Y118.485 E9.8442
G1 X123.209 Y119.096 E9.88099
G1 X122.758 Y119.713 E9.91912
G1 X122.294 Y120.307 E9.95673
G1 X121.827 Y120.867 E9.9931
G1 X121.334 Y121.424 E10.03021
G1 X120.805 Y121.971 E10.06818
G1 X120.306 Y122.463 E10.10314
G1 X118.831 Y123.716 E10.1997
G1 X118.167 Y124.155 E10.23941
G1 X116.177 Y125.141 E10.35021
G1 X115.036 Y125.515 E10.41011
G1 X113.416 Y125.833 E10.49248
G1 X111.974 Y125.937 E10.56461
G1 X96.876 Y125.873 E11.31786
G1 X95.695 Y125.695 E11.37744
G1 X93.905 Y125.241 E11.46957
G1 X92.068 Y124.288 E11.57282
G1 X90.716 Y123.359 E11.65466
G1 X89.656 Y122.426 E11.72511
G1 X89.07 Y121.847 E11.76621
G1 X88.576 Y121.319 E11.80228
G1 X88.084 Y120.761 E11.8394
G1 X87.579 Y120.152 E11.87887
G1 X87.125 Y119.56 E11.91609
G1 X86.7 Y118.967 E11.95249
G1 X86.272 Y118.329 E11.99082
G1 X85.876 Y117.683 E12.02862
G1 X85.524 Y117.068 E12.06397
G1 X85.145 Y116.354 E12.1043
G1 X84.812 Y115.666 E12.14243
G1 X84.516 Y114.995 E12.17902
G1 X84.243 Y114.321 E12.2153
G1 X83.994 Y113.635 E12.25171
G1 X83.735 Y112.858 E12.29257
G1 X83.526 Y112.131 E12.33031
G1 X83.318 Y111.294 E12.37334
G1 X82.955 Y109.593 E12.46011
G1 X83.02 Y107.174 E12.58084
G1 X83.11 Y106.496 E12.61497
G1 X83.611 Y104.573 E12.71411
G1 X84.301 Y102.944 E12.80237
G1 X92.081 Y89.45 E13.57946
G1 X93.557 Y87.851 E13.68803
G0 F3600 X93.823 Y88.15
G1 F1800 X95.046 Y87.062 E13.7697
G1 X96.862 Y86.078 E13.87274
G1 X97.898 Y85.651 E13.92865
G1 X98.821 Y85.354 E13.97702
G1 X99.569 Y85.147 E14.01574
G1 X100.333 Y84.969 E14.05488
G1 X101.031 Y84.831 E14.09038
G1 X101.743 Y84.71 E14.12641
G1 X102.508 Y84.605 E14.16493
G1 X103.229 Y84.535 E14.20107
G1 X103.997 Y84.483 E14.23947
G1 X104.694 Y84.465 E14.27426
G1 X105.488 Y84.464 E14.31387
G1 X106.179 Y84.497 E14.34839
G1 X106.976 Y84.554 E14.38825
G1 X107.664 Y84.632 E14.42279
G1 X108.376 Y84.729 E14.45864
G1 X109.116 Y84.853 E14.49608
G1 X109.868 Y85.006 E14.53436
G1 X110.673 Y85.202 E14.5757
G1 X112.458 Y85.79 E14.66946
G1 X114.317 Y86.721 E14.77319
G1 X115.56 Y87.597 E14.84905
G1 X116.671 Y88.563 E14.9225
G1 X118.051 Y90.461 E15.03958
G1 X125.43 Y103.296 E15.7782
G1 X126.114 Y105 E15.86981
G1 X126.467 Y106.425 E15.94305
G1 X126.598 Y107.475 E15.99584
G1 X126.585 Y109.53 E16.09837
G1 X126.486 Y110.277 E16.13596
G1 X126.223 Y111.504 E16.19857
G1 X126.036 Y112.218 E16.23539
G1 X125.833 Y112.904 E16.27108
G1 X125.601 Y113.604 E16.30787
G1 X125.38 Y114.207 E16.33991
G1 X125.056 Y114.984 E16.38191
G1 X124.751 Y115.659 E16.41887
G1 X124.407 Y116.344 E16.45711
G1 X124.062 Y116.983 E16.49334
G1 X123.685 Y117.635 E16.53091
G1 X123.291 Y118.261 E16.56781
G1 X122.886 Y118.86 E16.60389
G1 X122.443 Y119.467 E16.64138
G1 X121.987 Y120.051 E16.67835
G1 X121.527 Y120.602 E16.71416
G1 X121.034 Y121.159 E16.75127
G1 X120.524 Y121.686 E16.78785
G1 X120.025 Y122.178 E16.82281
G1 X118.61 Y123.382 E16.91551
G1 X117.946 Y123.821 E16.95522
G1 X116.051 Y124.761 E17.06075
G1 X114.959 Y125.122 E17.11813
G1 X113.339 Y125.44 E17.2005
G1 X111.976 Y125.537 E17.26867
G1 X96.936 Y125.477 E18.01902
G1 X95.755 Y125.299 E18.07861
G1 X94.046 Y124.864 E18.16659
G1 X92.295 Y123.958 E18.26495
G1 X90.943 Y123.029 E18.34679
G1 X89.937 Y122.141 E18.41374
G1 X89.362 Y121.574 E18.45402
G1 X88.876 Y121.055 E18.4895
G1 X88.392 Y120.505 E18.52605
G1 X87.896 Y119.908 E18.56477
G1 X87.45 Y119.327 E18.60131
G1 X87.032 Y118.744 E18.6371
G1 X86.613 Y118.12 E18.6746
G1 X86.223 Y117.484 E18.71182
G1 X85.877 Y116.88 E18.74655
G1 X85.505 Y116.18 E18.7861
G1 X85.178 Y115.504 E18.82356
G1 X84.887 Y114.845 E18.8595
G1 X84.619 Y114.184 E18.89509
G1 X84.373 Y113.509 E18.93093
G1 X84.119 Y112.747 E18.971
G1 X83.914 Y112.035 E19.00797
G1 X83.709 Y111.21 E19.05038
G1 X83.356 Y109.557 E19.13471
G1 X83.417 Y107.227 E19.25099
G1 X83.507 Y106.549 E19.28511
G1 X83.979 Y104.729 E19.37892
G1 X84.669 Y103.1 E19.46718
G1 X92.404 Y89.689 E20.23957
G1 X93.823 Y88.15 E20.344
G0 F3600 X94.089 Y88.449
G1 F1800 X95.276 Y87.393 E20.42327
G1 X97.053 Y86.43 E20.5241
G1 X98.021 Y86.032 E20.57632
G1 X98.928 Y85.74 E20.62386
G1 X99.676 Y85.533 E20.66258
G1 X100.411 Y85.361 E20.70024
G1 X101.098 Y85.225 E20.73518
G1 X101.797 Y85.106 E20.77055
G1 X102.547 Y85.003 E20.80832
G1 X103.256 Y84.934 E20.84386
G1 X104.007 Y84.883 E20.88141
G1 X104.695 Y84.865 E20.91575
G1 X105.469 Y84.864 E20.95437
G1 X106.151 Y84.896 E20.98843
G1 X106.931 Y84.951 E21.02744
G1 X107.61 Y85.028 E21.06153
G1 X108.31 Y85.123 E21.09678
G1 X109.036 Y85.245 E21.1335
G1 X109.773 Y85.395 E21.17103
G1 X110.578 Y85.591 E21.21236
G1 X112.28 Y86.148 E21.30171
G1 X114.087 Y87.048 E21.40242
G1 X115.297 Y87.899 E21.47622
G1 X116.375 Y88.837 E21.54751
G1 X117.704 Y90.66 E21.66007
G1 X125.083 Y103.495 E22.39869
G1 X125.726 Y105.097 E22.48481
G1 X126.07 Y106.476 E22.55572
G1 X126.198 Y107.473 E22.60587
G1 X126.188 Y109.477 E22.70585
G1 X126.089 Y110.224 E22.74344
G1 X125.836 Y111.403 E22.8036
G1 X125.653 Y112.104 E22.83975
G1 X125.453 Y112.778 E22.87482
G1 X125.225 Y113.466 E22.91098
G1 X125.004 Y114.069 E22.94302
G1 X124.692 Y114.819 E22.98355
G1 X124.393 Y115.48 E23.01974
G1 X124.055 Y116.154 E23.05736
G1 X123.716 Y116.783 E23.09301
G1 X123.346 Y117.422 E23.12985
G1 X122.96 Y118.037 E23.16607
G1 X122.563 Y118.624 E23.20143
G1 X122.128 Y119.221 E23.23828
G1 X121.68 Y119.795 E23.27461
G1 X121.228 Y120.337 E23.30981
G1 X120.746 Y120.881 E23.34608
G1 X120.243 Y121.401 E23.38217
G1 X119.744 Y121.893 E23.41713
G1 X118.389 Y123.048 E23.50596
G1 X117.725 Y123.487 E23.54567
G1 X115.874 Y124.402 E23.64868
G1 X114.882 Y124.729 E23.7008
G1 X113.262 Y125.047 E23.78316
G1 X111.977 Y125.137 E23.84743
G1 X96.996 Y125.081 E24.59484
G1 X95.815 Y124.903 E24.65442
G1 X94.185 Y124.486 E24.73836
G1 X92.522 Y123.628 E24.83172
G1 X91.17 Y122.699 E24.91356
G1 X90.218 Y121.856 E24.977
G1 X89.654 Y121.3 E25.01651
G1 X89.176 Y120.791 E25.05135
G1 X88.699 Y120.249 E25.08737
G1 X88.213 Y119.665 E25.12528
G1 X87.775 Y119.094 E25.16118
G1 X87.364 Y118.521 E25.19636
G1 X86.954 Y117.911 E25.23303
G1 X86.57 Y117.285 E25.26967
G1 X86.23 Y116.692 E25.30377
G1 X85.865 Y116.006 E25.34254
G1 X85.544 Y115.342 E25.37933
G1 X85.258 Y114.694 E25.41467
G1 X84.995 Y114.047 E25.44951
G1 X84.752 Y113.383 E25.48479
G1 X84.503 Y112.636 E25.52407
G1 X84.302 Y111.939 E25.56026
G1 X84.1 Y111.126 E25.60206
G1 X83.757 Y109.521 E25.68394
G1 X83.814 Y107.28 E25.79578
G1 X83.904 Y106.602 E25.8299
G1 X84.366 Y104.83 E25.92126
G1 X85.016 Y103.3 E26.0042
G1 X92.73 Y89.925 E26.77451
G1 X94.089 Y88.449 E26.8746
G0 F3600 X94.355 Y88.748
G1 F1800 X95.506 Y87.724 E26.95146
G1 X97.244 Y86.782 E27.05009
G1 X98.144 Y86.413 E27.09862
G1 X99.035 Y86.126 E27.14532
G1 X99.783 Y85.919 E27.18404
G1 X100.489 Y85.753 E27.22022
G1 X101.165 Y85.619 E27.25461
G1 X101.851 Y85.502 E27.28933
G1 X102.586 Y85.401 E27.32634
G1 X103.283 Y85.333 E27.36128
G1 X104.018 Y85.283 E27.39803
G1 X104.696 Y85.265 E27.43187
G1 X105.451 Y85.264 E27.46954
G1 X106.123 Y85.295 E27.5031
G1 X106.886 Y85.348 E27.54126
G1 X107.556 Y85.424 E27.5749
G1 X108.244 Y85.518 E27.60954
G1 X108.956 Y85.637 E27.64555
G1 X109.678 Y85.784 E27.68231
G1 X110.483 Y85.98 E27.72365
G1 X112.155 Y86.528 E27.81143
G1 X113.857 Y87.376 E27.9063
G1 X115.034 Y88.201 E27.97801
G1 X116.079 Y89.111 E28.04714
G1 X117.357 Y90.859 E28.15517
G1 X124.736 Y103.694 E28.8938
G1 X125.338 Y105.194 E28.97443
G1 X125.673 Y106.529 E29.0431
G1 X125.798 Y107.472 E29.09056
G1 X125.791 Y109.424 E29.18795
G1 X125.692 Y110.171 E29.22554
G1 X125.449 Y111.302 E29.28325
G1 X125.269 Y111.99 E29.31873
G1 X125.073 Y112.652 E29.35318
G1 X124.849 Y113.328 E29.38871
G1 X124.628 Y113.931 E29.42075
G1 X124.328 Y114.654 E29.4598
G1 X124.035 Y115.301 E29.49523
G1 X123.703 Y115.964 E29.53223
G1 X123.37 Y116.583 E29.56729
G1 X123.007 Y117.21 E29.60344
G1 X122.629 Y117.813 E29.63894
G1 X122.239 Y118.389 E29.67365
G1 X121.813 Y118.975 E29.70979
G1 X121.373 Y119.539 E29.74548
G1 X120.928 Y120.072 E29.78012
G1 X120.458 Y120.603 E29.8155
G1 X119.962 Y121.116 E29.8511
G1 X119.463 Y121.608 E29.88606
G1 X118.168 Y122.714 E29.97103
G1 X117.504 Y123.153 E30.01074
G1 X115.697 Y124.043 E30.11123
G1 X114.805 Y124.336 E30.15807
G1 X113.185 Y124.654 E30.24044
G1 X111.978 Y124.737 E30.3008
G1 X97.055 Y124.685 E31.04531
G1 X95.914 Y124.515 E31.10287
G1 X94.328 Y124.109 E31.18454
G1 X92.749 Y123.298 E31.2731
G1 X91.397 Y122.369 E31.35494
G1 X90.499 Y121.571 E31.41488
G1 X89.945 Y121.026 E31.45365
G1 X89.476 Y120.527 E31.48782
G1 X89.006 Y119.993 E31.52331
G1 X88.53 Y119.421 E31.56043
G1 X88.1 Y118.861 E31.59566
G1 X87.696 Y118.298 E31.63023
G1 X87.295 Y117.702 E31.66607
G1 X86.917 Y117.086 E31.70212
G1 X86.583 Y116.504 E31.7356
G1 X86.225 Y115.832 E31.77359
G1 X85.91 Y115.181 E31.80967
G1 X85.629 Y114.543 E31.84445
G1 X85.366 Y113.896 E31.87929
G1 X85.127 Y113.245 E31.91389
G1 X84.887 Y112.525 E31.95176
G1 X84.69 Y111.843 E31.98717
G1 X84.491 Y111.042 E32.02835
G1 X84.158 Y109.485 E32.10778
G1 X84.211 Y107.333 E32.21518
G1 X84.301 Y106.655 E32.2493
G1 X84.734 Y104.986 E32.33533
G1 X85.363 Y103.5 E32.41583
G1 X93.056 Y90.161 E33.18406
G1 X94.355 Y88.748 E33.27982
G0 F3600 X94.621 Y89.047
G1 F1800 X95.739 Y88.052 E33.35449
G1 X97.396 Y87.152 E33.44856
G1 X98.267 Y86.794 E33.49554
G1 X99.158 Y86.507 E33.54225
G1 X99.875 Y86.308 E33.57937
G1 X100.567 Y86.145 E33.61484
G1 X101.232 Y86.013 E33.64866
G1 X101.906 Y85.898 E33.68277
G1 X102.625 Y85.799 E33.71898
G1 X103.31 Y85.732 E33.75332
G1 X104.029 Y85.683 E33.78928
G1 X104.697 Y85.665 E33.82261
G1 X105.433 Y85.664 E33.85933
G1 X106.096 Y85.694 E33.89244
G1 X106.841 Y85.745 E33.9297
G1 X107.502 Y85.82 E33.96289
G1 X108.178 Y85.912 E33.99693
G1 X108.876 Y86.029 E34.03223
G1 X109.583 Y86.173 E34.06823
G1 X110.388 Y86.369 E34.10957
G1 X112.03 Y86.908 E34.19579
G1 X113.628 Y87.704 E34.28485
G1 X114.771 Y88.503 E34.35443
G1 X115.784 Y89.385 E34.42144
G1 X117.01 Y91.058 E34.52492
G1 X124.365 Y103.844 E35.26083
G1 X124.95 Y105.292 E35.33874
G1 X125.276 Y106.582 E35.40512
G1 X125.401 Y107.525 E35.45258
G1 X125.394 Y109.371 E35.54468
G1 X125.295 Y110.118 E35.58227
G1 X125.062 Y111.201 E35.63754
G1 X124.885 Y111.877 E35.6724
G1 X124.693 Y112.526 E35.70617
G1 X124.473 Y113.19 E35.74107
G1 X124.252 Y113.793 E35.77311
G1 X123.963 Y114.489 E35.8107
G1 X123.677 Y115.122 E35.84536
G1 X123.351 Y115.775 E35.88177
G1 X123.024 Y116.383 E35.91621
G1 X122.668 Y116.998 E35.95167
G1 X122.298 Y117.589 E35.98645
G1 X121.915 Y118.154 E36.02051
G1 X121.497 Y118.729 E36.05597
G1 X121.066 Y119.283 E36.09099
G1 X120.629 Y119.807 E36.12503
G1 X120.17 Y120.325 E36.15956
G1 X119.681 Y120.831 E36.19467
G1 X119.182 Y121.323 E36.22963
G1 X117.946 Y122.381 E36.3108
G1 X117.327 Y122.794 E36.34792
G1 X115.52 Y123.684 E36.44842
G1 X114.728 Y123.943 E36.48999
G1 X113.108 Y124.261 E36.57235
G1 X111.979 Y124.337 E36.62881
G1 X97.056 Y124.285 E37.37332
G1 X96.013 Y124.127 E37.42595
G1 X94.47 Y123.732 E37.50541
G1 X92.932 Y122.942 E37.59168
G1 X91.624 Y122.04 E37.67094
G1 X90.779 Y121.286 E37.72744
G1 X90.236 Y120.752 E37.76544
G1 X89.776 Y120.263 E37.79893
G1 X89.313 Y119.737 E37.83389
G1 X88.847 Y119.177 E37.87024
G1 X88.425 Y118.628 E37.90479
G1 X88.028 Y118.075 E37.93875
G1 X87.636 Y117.493 E37.97376
G1 X87.264 Y116.887 E38.00923
G1 X86.936 Y116.316 E38.04209
G1 X86.585 Y115.658 E38.07929
G1 X86.276 Y115.02 E38.11466
G1 X86 Y114.392 E38.14888
G1 X85.737 Y113.745 E38.18373
G1 X85.506 Y113.118 E38.21706
G1 X85.271 Y112.414 E38.25409
G1 X85.078 Y111.747 E38.28873
G1 X84.882 Y110.958 E38.32929
G1 X84.559 Y109.448 E38.40633
G1 X84.608 Y107.386 E38.50923
G1 X84.698 Y106.708 E38.54336
G1 X85.121 Y105.087 E38.62694
G1 X85.709 Y103.7 E38.7021
G1 X93.38 Y90.4 E39.46809
G1 X94.621 Y89.047 E39.55969
G0 F3600 X94.887 Y89.346
G1 F1800 X95.973 Y88.38 E39.6322
G1 X97.549 Y87.522 E39.72172
G1 X98.39 Y87.175 E39.76711
G1 X99.281 Y86.888 E39.81381
G1 X99.967 Y86.697 E39.84934
G1 X100.645 Y86.537 E39.8841
