;FLAVOR:Marlin
;TIME:7945
;Filament used: 7.69739m
;Layer height: 0.15
;MINX:30.049
;MINY:80.284
;MINZ:0.3
;MAXX:184.8
;MAXY:136.857
;MAXZ:34.95
;TARGET_MACHINE.NAME:Unknown
;Generated with Cura_SteamEngine 5.12.0
M104 S200
M105
M109 S200
G28 ;Home
G1 Z15.0 F6000 ;Move the platform down 15mm
;Prime the extruder
G92 E0
G1 F200 E3
G92 E0
M82 ;absolute extrusion mode
G92 E0
G92 E0
G1 F1500 E-6.5
;LAYER_COUNT:232
;LAYER:0
M107
G0 F3600 X35.572 Y113.411 Z0.3
;TYPE:SKIRT
G1 F1500 E0
G1 F1800 X37.095 Y113.189 E0.07679
G1 X155.2 Y113.137 E5.96907
G1 X155.2 Y88.62 E7.19223
G1 X155.622 Y86.563 E7.29699
G1 X156.617 Y84.792 E7.39833
G1 X157.39 Y83.794 E7.46131
G1 X158.743 Y82.702 E7.54806
G1 X160.722 Y81.716 E7.65837
G1 X162.246 Y81.494 E7.7352
G1 X177.618 Y81.442 E8.50212
G1 X179.683 Y81.866 E8.60729
G1 X181.56 Y82.931 E8.71496
G1 X182.452 Y83.631 E8.77153
G1 X183.543 Y84.988 E8.85839
G1 X184.544 Y87.006 E8.97078
G1 X184.8 Y89.246 E9.08326
G1 X184.73 Y126.815 E10.95759
G1 X184.519 Y128.126 E11.02384
G1 X183.666 Y130.037 E11.12824
G1 X182.206 Y131.833 E11.24372
G1 X179.939 Y133.216 E11.3762
G1 X178.09 Y133.617 E11.47059
G1 X176.186 Y133.765 E11.56587
G1 X175.447 Y133.836 E11.60291
G1 X174.341 Y134.034 E11.65897
G1 X173.473 Y134.274 E11.7039
G1 X172.957 Y134.443 E11.73098
G1 X171.033 Y135.159 E11.83341
G1 X169.501 Y135.578 E11.91264
G1 X167.971 Y135.903 E11.99068
G1 X166.747 Y136.113 E12.05264
G1 X165.587 Y136.273 E12.11106
G1 X164.043 Y136.452 E12.1886
G1 X162.691 Y136.58 E12.25636
G1 X160.942 Y136.707 E12.34384
G1 X159.214 Y136.785 E12.43014
G1 X157.506 Y136.829 E12.51538
G1 X155.739 Y136.857 E12.60355
G1 X154.007 Y136.856 E12.68996
G1 X152.272 Y136.835 E12.77653
G1 X150.547 Y136.795 E12.86261
G1 X148.82 Y136.731 E12.94883
G1 X144.052 Y136.476 E13.18705
G1 X141.813 Y136.326 E13.299
G1 X138.582 Y136.05 E13.46078
G1 X135.914 Y135.807 E13.59444
G1 X132.726 Y135.483 E13.75431
G1 X131.113 Y135.305 E13.83527
G1 X80.742 Y135.255 E16.34829
G1 X74.434 Y134.547 E16.66498
G1 X72.289 Y134.315 E16.77261
G1 X70.338 Y134.127 E16.8704
G1 X67.383 Y133.886 E17.01832
G1 X65.687 Y133.802 E17.10303
G1 X64.697 Y133.766 E17.15246
G1 X63.826 Y133.746 E17.19592
G1 X62.744 Y133.737 E17.24991
G1 X37.228 Y133.737 E18.5229
G1 X35.171 Y133.315 E18.62767
G1 X33.4 Y132.32 E18.72901
G1 X32.397 Y131.544 E18.79228
G1 X31.312 Y130.194 E18.87869
G1 X30.319 Y128.201 E18.98978
G1 X30.079 Y126.392 E19.08082
G1 X30.049 Y120.333 E19.38311
G1 X30.473 Y118.26 E19.48867
G1 X31.53 Y116.387 E19.59597
G1 X32.221 Y115.504 E19.65191
G1 X33.598 Y114.395 E19.74012
G1 X35.572 Y113.411 E19.85016
G0 F3600 X35.692 Y113.798
G1 F1800 X37.153 Y113.585 E19.92382
G1 X155.6 Y113.537 E25.83316
G1 X155.6 Y88.661 E27.07423
G1 X156.002 Y86.704 E27.1739
G1 X156.933 Y85.037 E27.26916
G1 X157.678 Y84.075 E27.32987
G1 X158.96 Y83.041 E27.41204
G1 X160.842 Y82.103 E27.51695
G1 X162.304 Y81.89 E27.59066
G1 X177.578 Y81.842 E28.35268
G1 X179.541 Y82.245 E28.45266
G1 X181.313 Y83.246 E28.55419
G1 X182.168 Y83.917 E28.60842
G1 X183.205 Y85.207 E28.69099
G1 X184.155 Y87.121 E28.7976
G1 X184.4 Y89.245 E28.90427
G1 X184.335 Y126.751 E30.77545
G1 X184.132 Y128.012 E30.83917
G1 X183.322 Y129.827 E30.93833
G1 X181.941 Y131.526 E31.04757
G1 X179.788 Y132.839 E31.17338
G1 X178.059 Y133.218 E31.26169
G1 X176.155 Y133.366 E31.35696
G1 X175.388 Y133.44 E31.39541
G1 X174.258 Y133.642 E31.45268
G1 X173.355 Y133.892 E31.49942
G1 X172.817 Y134.068 E31.52766
G1 X170.927 Y134.773 E31.6283
G1 X169.395 Y135.192 E31.70754
G1 X167.903 Y135.509 E31.78364
G1 X166.692 Y135.717 E31.84494
G1 X165.541 Y135.876 E31.90291
G1 X164.005 Y136.054 E31.98005
G1 X162.662 Y136.181 E32.04736
G1 X160.924 Y136.307 E32.13429
G1 X159.204 Y136.385 E32.22019
G1 X157.5 Y136.429 E32.30523
G1 X155.739 Y136.457 E32.3931
G1 X154.012 Y136.456 E32.47926
G1 X152.281 Y136.435 E32.56563
G1 X150.562 Y136.395 E32.65141
G1 X148.841 Y136.332 E32.73733
G1 X144.079 Y136.077 E32.97525
G1 X141.847 Y135.927 E33.08685
G1 X138.618 Y135.652 E33.24853
G1 X135.954 Y135.409 E33.38199
G1 X132.77 Y135.085 E33.54166
G1 X131.139 Y134.905 E33.62353
G1 X80.787 Y134.857 E36.1356
G1 X74.479 Y134.149 E36.45228
G1 X72.332 Y133.917 E36.56002
G1 X70.371 Y133.728 E36.65831
G1 X67.405 Y133.486 E36.80678
G1 X65.707 Y133.402 E36.89159
G1 X64.711 Y133.366 E36.94132
G1 X63.835 Y133.346 E36.98503
G1 X62.747 Y133.337 E37.03931
G1 X37.269 Y133.337 E38.31042
G1 X35.312 Y132.935 E38.41009
G1 X33.645 Y132.004 E38.50535
G1 X32.681 Y131.258 E38.56616
G1 X31.651 Y129.976 E38.64821
G1 X30.707 Y128.083 E38.75374
G1 X30.476 Y126.339 E38.84151
G1 X30.449 Y120.373 E39.13916
G1 X30.852 Y118.402 E39.23952
G1 X31.845 Y116.634 E39.34069
G1 X32.508 Y115.787 E39.39435
G1 X33.818 Y114.732 E39.47827
G1 X35.692 Y113.798 E39.58273
G0 F3600 X35.812 Y114.185
G1 F1800 X37.211 Y113.981 E39.65327
G1 X156 Y113.937 E45.57967
G1 X156 Y88.703 E46.8386
G1 X156.382 Y86.845 E46.93324
G1 X157.249 Y85.282 E47.02241
G1 X157.966 Y84.356 E47.08084
G1 X159.177 Y83.38 E47.15843
G1 X160.962 Y82.49 E47.25794
G1 X162.362 Y82.286 E47.32853
G1 X177.538 Y82.242 E48.08567
G1 X179.398 Y82.624 E48.1804
G1 X181.066 Y83.561 E48.27585
G1 X181.884 Y84.203 E48.32772
G1 X182.867 Y85.426 E48.40601
G1 X183.766 Y87.237 E48.50688
G1 X184 Y89.244 E48.60769
G1 X183.94 Y126.687 E50.47573
G1 X183.745 Y127.898 E50.53692
G1 X182.978 Y129.617 E50.63083
G1 X181.674 Y131.221 E50.73396
G1 X179.64 Y132.462 E50.85284
G1 X178.028 Y132.819 E50.93521
G1 X176.124 Y132.967 E51.03049
G1 X175.327 Y133.044 E51.07043
G1 X174.167 Y133.252 E51.12923
G1 X173.248 Y133.506 E51.1768
G1 X172.677 Y133.693 E51.20677
G1 X170.821 Y134.387 E51.30563
G1 X169.289 Y134.806 E51.38487
G1 X167.835 Y135.115 E51.45903
G1 X166.637 Y135.321 E51.51968
G1 X165.495 Y135.479 E51.57719
G1 X163.967 Y135.656 E51.65394
G1 X162.633 Y135.782 E51.72079
G1 X160.906 Y135.907 E51.80717
G1 X159.194 Y135.985 E51.89267
G1 X157.494 Y136.029 E51.97751
G1 X155.739 Y136.057 E52.06508
G1 X154.017 Y136.056 E52.15099
G1 X152.29 Y136.035 E52.23716
G1 X150.576 Y135.995 E52.3227
G1 X148.862 Y135.933 E52.40826
G1 X144.106 Y135.678 E52.64588
G1 X141.881 Y135.528 E52.75714
G1 X138.654 Y135.254 E52.91871
G1 X135.995 Y135.011 E53.05193
G1 X132.814 Y134.687 E53.21145
G1 X131.165 Y134.505 E53.29422
G1 X80.832 Y134.459 E55.80534
G1 X74.524 Y133.751 E56.12202
G1 X72.375 Y133.519 E56.22986
G1 X70.403 Y133.329 E56.3287
G1 X67.437 Y133.088 E56.47716
G1 X65.721 Y133.002 E56.56288
G1 X64.725 Y132.966 E56.6126
G1 X63.844 Y132.946 E56.65657
G1 X62.75 Y132.937 E56.71115
G1 X37.311 Y132.937 E57.98031
G1 X35.453 Y132.555 E58.07494
G1 X33.89 Y131.688 E58.16411
G1 X32.963 Y130.971 E58.22258
G1 X31.99 Y129.759 E58.30012
G1 X31.096 Y127.966 E58.40008
G1 X30.873 Y126.286 E58.48463
G1 X30.849 Y120.413 E58.77764
G1 X31.232 Y118.542 E58.87292
G1 X32.16 Y116.881 E58.96784
G1 X32.797 Y116.068 E59.01937
G1 X34.034 Y115.071 E59.09863
G1 X35.812 Y114.185 E59.19774
G0 F3600 X35.932 Y114.572
G1 F1800 X37.269 Y114.377 E59.26515
G1 X156.4 Y114.337 E65.20862
G1 X156.4 Y88.745 E66.48541
G1 X156.762 Y86.985 E66.57506
G1 X157.599 Y85.476 E66.66115
G1 X158.251 Y84.64 E66.71404
G1 X159.397 Y83.717 E66.78745
G1 X161.082 Y82.877 E66.88138
G1 X162.42 Y82.682 E66.94884
G1 X177.497 Y82.642 E67.70104
G1 X179.258 Y83.004 E67.79073
G1 X180.819 Y83.876 E67.87994
G1 X181.6 Y84.489 E67.92947
G1 X182.529 Y85.645 E68.00346
G1 X183.377 Y87.353 E68.0986
G1 X183.6 Y89.243 E68.19354
G1 X183.545 Y126.623 E70.05844
G1 X183.358 Y127.784 E70.11711
G1 X182.634 Y129.407 E70.20577
G1 X181.407 Y130.916 E70.3028
G1 X179.491 Y132.085 E70.41478
G1 X177.942 Y132.428 E70.49393
G1 X176.094 Y132.568 E70.58639
G1 X175.267 Y132.648 E70.62785
G1 X174.34 Y132.814 E70.67483
G1 X173.824 Y132.931 E70.70123
G1 X173.141 Y133.12 E70.73658
G1 X172.537 Y133.318 E70.76829
G1 X170.715 Y134.001 E70.86537
G1 X169.183 Y134.42 E70.94461
G1 X167.767 Y134.721 E71.01683
G1 X166.582 Y134.925 E71.07682
G1 X165.449 Y135.082 E71.13389
G1 X163.929 Y135.258 E71.21023
G1 X162.604 Y135.383 E71.27662
G1 X160.888 Y135.507 E71.36246
G1 X159.184 Y135.585 E71.44756
G1 X157.488 Y135.629 E71.5322
G1 X155.739 Y135.657 E71.61947
G1 X154.022 Y135.656 E71.70513
G1 X152.299 Y135.635 E71.7911
G1 X150.59 Y135.595 E71.87639
G1 X148.883 Y135.534 E71.9616
G1 X144.133 Y135.279 E72.19892
G1 X141.915 Y135.129 E72.30983
G1 X138.69 Y134.856 E72.4713
G1 X136.036 Y134.613 E72.60427
G1 X132.858 Y134.289 E72.76364
G1 X131.191 Y134.105 E72.84731
G1 X80.877 Y134.061 E75.35749
G1 X74.569 Y133.353 E75.67417
G1 X72.418 Y133.121 E75.78211
G1 X70.435 Y132.93 E75.8815
G1 X67.469 Y132.69 E76.02996
G1 X65.735 Y132.602 E76.11658
G1 X64.739 Y132.566 E76.1663
G1 X63.853 Y132.546 E76.21051
G1 X62.753 Y132.537 E76.2654
G1 X37.353 Y132.537 E77.53261
G1 X35.593 Y132.175 E77.62225
G1 X34.084 Y131.338 E77.70834
G1 X33.248 Y130.686 E77.76123
G1 X32.327 Y129.54 E77.83458
G1 X31.485 Y127.849 E77.92883
G1 X31.27 Y126.233 E78.01016
G1 X31.249 Y120.453 E78.29853
G1 X31.611 Y118.683 E78.38866
G1 X32.475 Y117.128 E78.47741
G1 X33.086 Y116.349 E78.52681
G1 X34.251 Y115.41 E78.60146
G1 X35.932 Y114.572 E78.69517
G0 F3600 X36.052 Y114.959
G1 F1800 X37.327 Y114.773 E78.75945
G1 X156.8 Y114.737 E84.71998
G1 X156.8 Y88.787 E86.01463
G1 X157.142 Y87.125 E86.09929
G1 X157.949 Y85.67 E86.18229
G1 X158.535 Y84.925 E86.22958
G1 X159.617 Y84.054 E86.29888
G1 X161.202 Y83.264 E86.38724
G1 X162.478 Y83.078 E86.45157
G1 X177.455 Y83.042 E87.19878
G1 X179.117 Y83.384 E87.28343
G1 X180.572 Y84.191 E87.36644
G1 X181.316 Y84.775 E87.41363
G1 X182.191 Y85.864 E87.48332
G1 X182.988 Y87.469 E87.57272
G1 X183.2 Y89.242 E87.66181
G1 X183.15 Y126.559 E89.52356
G1 X182.971 Y127.67 E89.57971
G1 X182.29 Y129.197 E89.66312
G1 X181.142 Y130.609 E89.75391
G1 X179.338 Y131.709 E89.85933
G1 X177.912 Y132.029 E89.93224
G1 X176.064 Y132.169 E90.0247
G1 X175.209 Y132.252 E90.06756
G1 X174.263 Y132.421 E90.1155
G1 X173.717 Y132.545 E90.14343
G1 X173.034 Y132.734 E90.17879
G1 X172.412 Y132.938 E90.21145
G1 X170.609 Y133.615 E90.30753
G1 X169.077 Y134.034 E90.38677
G1 X167.699 Y134.327 E90.45706
G1 X166.527 Y134.529 E90.51639
G1 X165.403 Y134.685 E90.573
G1 X163.892 Y134.86 E90.64889
G1 X162.575 Y134.984 E90.71489
G1 X160.87 Y135.107 E90.80017
G1 X159.174 Y135.185 E90.88487
G1 X157.482 Y135.229 E90.96932
G1 X155.739 Y135.257 E91.05629
G1 X154.027 Y135.256 E91.1417
G1 X152.308 Y135.235 E91.22747
G1 X150.604 Y135.195 E91.3125
G1 X148.904 Y135.135 E91.39737
G1 X144.16 Y134.88 E91.63439
G1 X141.949 Y134.73 E91.74495
G1 X138.727 Y134.458 E91.90627
G1 X136.077 Y134.215 E92.03903
G1 X132.902 Y133.891 E92.19826
G1 X131.217 Y133.705 E92.28283
G1 X80.922 Y133.663 E94.79206
G1 X74.614 Y132.955 E95.10874
G1 X72.461 Y132.723 E95.21678
G1 X70.47 Y132.531 E95.31657
G1 X69.468 Y132.444 E95.36675
G1 X67.5 Y132.292 E95.46523
G1 X65.749 Y132.202 E95.5527
G1 X64.753 Y132.166 E95.60242
G1 X63.862 Y132.146 E95.64689
G1 X62.756 Y132.137 E95.70207
G1 X37.395 Y132.137 E96.96733
G1 X35.733 Y131.795 E97.05199
G1 X34.278 Y130.988 E97.13499
G1 X33.533 Y130.402 E97.18228
G1 X32.664 Y129.321 E97.25148
G1 X31.872 Y127.73 E97.34015
G1 X31.67 Y126.232 E97.41556
G1 X31.649 Y120.493 E97.70188
G1 X31.991 Y118.822 E97.78697
G1 X32.79 Y117.375 E97.86944
G1 X33.372 Y116.632 E97.91653
G1 X34.471 Y115.747 E97.98692
G1 X36.052 Y114.959 E98.07505
G0 F3600 X36.172 Y115.346
G1 F1800 X37.385 Y115.169 E98.13621
G1 X157.2 Y115.137 E104.11381
G1 X157.2 Y88.829 E105.42632
G1 X157.522 Y87.265 E105.50598
G1 X158.299 Y85.864 E105.58591
G1 X158.82 Y85.21 E105.62763
G1 X159.835 Y84.393 E105.69263
G1 X161.323 Y83.651 E105.77558
G1 X162.536 Y83.474 E105.83674
G1 X177.413 Y83.442 E106.57896
G1 X178.977 Y83.764 E106.65863
G1 X180.378 Y84.541 E106.73855
G1 X181.031 Y85.06 E106.78017
G1 X181.853 Y86.083 E106.84564
G1 X182.599 Y87.585 E106.92931
G1 X182.8 Y89.242 E107.01258
G1 X182.755 Y126.495 E108.87114
G1 X182.584 Y127.556 E108.92476
G1 X181.946 Y128.987 E109.00293
G1 X180.877 Y130.302 E109.08747
G1 X179.185 Y131.333 E109.18633
G1 X177.882 Y131.63 E109.253
G1 X176.034 Y131.77 E109.34546
G1 X175.151 Y131.856 E109.38972
G1 X174.186 Y132.028 E109.43863
G1 X173.61 Y132.159 E109.4681
G1 X172.927 Y132.348 E109.50345
G1 X172.287 Y132.558 E109.53706
G1 X170.503 Y133.229 E109.63215
G1 X168.971 Y133.648 E109.71139
G1 X167.631 Y133.933 E109.77974
G1 X166.472 Y134.133 E109.83841
G1 X165.357 Y134.288 E109.89457
G1 X163.855 Y134.462 E109.97001
G1 X162.546 Y134.585 E110.03561
G1 X160.852 Y134.707 E110.12034
G1 X159.163 Y134.785 E110.20469
G1 X157.474 Y134.83 E110.28899
G1 X155.739 Y134.857 E110.37556
G1 X154.032 Y134.856 E110.46072
G1 X152.317 Y134.835 E110.54629
G1 X150.618 Y134.795 E110.63107
G1 X148.925 Y134.736 E110.71559
G1 X144.187 Y134.481 E110.95231
G1 X141.983 Y134.331 E111.06252
G1 X138.764 Y134.06 E111.22369
G1 X136.118 Y133.817 E111.35625
G1 X132.946 Y133.493 E111.51533
G1 X131.243 Y133.305 E111.60081
G1 X80.967 Y133.265 E114.10909
G1 X74.659 Y132.557 E114.42577
G1 X72.504 Y132.325 E114.53391
G1 X70.505 Y132.132 E114.6341
G1 X69.503 Y132.045 E114.68428
G1 X67.531 Y131.894 E114.78295
G1 X65.763 Y131.802 E114.87128
G1 X64.767 Y131.766 E114.921
G1 X63.871 Y131.746 E114.96571
G1 X62.759 Y131.737 E115.02119
G1 X37.437 Y131.737 E116.28451
G1 X35.873 Y131.415 E116.36418
G1 X34.472 Y130.638 E116.4441
G1 X33.818 Y130.117 E116.48582
G1 X33.001 Y129.102 E116.55082
G1 X32.259 Y127.611 E116.63391
G1 X32.07 Y126.231 E116.7034
G1 X32.049 Y120.533 E116.98768
G1 X32.371 Y118.962 E117.06769
G1 X33.105 Y117.622 E117.14391
G1 X33.661 Y116.913 E117.18886
G1 X34.687 Y116.086 E117.25461
G1 X36.172 Y115.346 E117.33738
G0 F3600 X36.292 Y115.733
G1 F1800 X37.443 Y115.565 E117.39542
G1 X157.6 Y115.537 E123.39007
G1 X157.6 Y88.871 E124.72045
G1 X157.902 Y87.404 E124.79517
G1 X158.612 Y86.113 E124.86868
G1 X159.104 Y85.496 E124.90805
G1 X160.055 Y84.73 E124.96897
G1 X161.443 Y84.038 E125.04635
G1 X162.594 Y83.87 E125.10438
G1 X177.371 Y83.842 E125.84161
G1 X178.838 Y84.144 E125.91633
G1 X180.129 Y84.854 E125.98984
G1 X180.745 Y85.344 E126.02911
G1 X181.515 Y86.302 E126.09042
G1 X182.21 Y87.701 E126.16836
G1 X182.4 Y89.242 E126.24582
G1 X182.36 Y126.431 E128.10119
G1 X182.197 Y127.442 E128.15228
G1 X181.602 Y128.777 E128.2252
G1 X180.612 Y129.995 E128.30351
G1 X179.032 Y130.957 E128.3958
G1 X177.852 Y131.231 E128.45623
G1 X176.004 Y131.371 E128.54869
G1 X175.093 Y131.46 E128.59436
G1 X174.11 Y131.635 E128.64417
G1 X173.503 Y131.773 E128.67523
G1 X172.82 Y131.962 E128.71058
G1 X172.162 Y132.178 E128.74514
G1 X170.397 Y132.843 E128.83923
G1 X168.865 Y133.262 E128.91847
G1 X167.563 Y133.539 E128.98488
G1 X166.417 Y133.737 E129.04291
G1 X165.311 Y133.891 E129.09862
G1 X163.818 Y134.064 E129.1736
G1 X162.517 Y134.186 E129.23879
G1 X160.833 Y134.307 E129.32302
G1 X159.152 Y134.385 E129.40698
G1 X157.466 Y134.431 E129.49113
G1 X155.739 Y134.457 E129.5773
G1 X154.037 Y134.456 E129.66221
G1 X152.326 Y134.435 E129.74758
G1 X150.632 Y134.395 E129.83212
G1 X148.947 Y134.337 E129.91623
G1 X144.214 Y134.082 E130.1527
G1 X142.016 Y133.932 E130.26262
G1 X138.801 Y133.662 E130.42358
G1 X136.159 Y133.419 E130.55594
G1 X132.99 Y133.095 E130.71487
G1 X131.269 Y132.905 E130.80125
G1 X81.012 Y132.867 E133.30859
G1 X74.704 Y132.159 E133.62527
G1 X72.547 Y131.927 E133.7335
G1 X70.54 Y131.733 E133.8341
G1 X69.538 Y131.646 E133.88428
G1 X67.561 Y131.495 E133.9832
G1 X65.777 Y131.402 E134.07232
G1 X64.781 Y131.366 E134.12205
G1 X63.88 Y131.346 E134.16701
G1 X62.762 Y131.337 E134.22279
G1 X37.479 Y131.337 E135.48416
G1 X36.012 Y131.035 E135.55889
G1 X34.721 Y130.325 E135.63239
G1 X34.104 Y129.833 E135.67176
G1 X33.338 Y128.882 E135.73268
G1 X32.646 Y127.492 E135.81015
G1 X32.47 Y126.23 E135.87372
G1 X32.449 Y120.573 E136.15595
G1 X32.751 Y119.1 E136.23097
G1 X33.42 Y117.869 E136.30087
G1 X33.95 Y117.194 E136.34368
G1 X34.903 Y116.425 E136.40478
G1 X36.292 Y115.733 E136.4822
G0 F3600 X36.412 Y116.12
G1 F1800 X37.501 Y115.961 E136.53711
G1 X157.876 Y115.937 E142.54264
G1 X158 Y115.848 E142.55025
G1 X158 Y88.913 E143.89405
G1 X158.282 Y87.542 E143.96388
G1 X158.925 Y86.362 E144.03092
